!!!!SEGMENT: pl-cz--ii-148--004_lessel-franciszek--msza-b-offertorium.krn
!!!cenid: 18xx:278
!!!COM: Lessel, Franciszek
!!!COM-rismID: pe30004332
!!!CDT: 1780-1838/12/26
!!!CNT: Polish
!!!OPR: Msza B
!!!OTL: Offertorium
!!!OMV: 004
!!!PDT: 1813
!!!AGN: Sacred; Mass
!!!SMS-siglum: PL-CZ
!!!SMS-shelfmark: II-148
!!!SMS-shelfwork: 001-004 M
!!!NIFC-rismSourceID: 300000720
!!!NIFC-rismChildID: 300000720
!!!NIFC-islandoraID: pl-cz:32451
!!!URL-pdf-islandora: https://repozytorium.nifc.pl/islandora/object/pl-cz%3A32451/datastream/PDF/view
!!!URL-scan: https://polish.musicsources.pl/pl/lokalizacje/galeria/rekopisy/6763/1 @EN{Scan on Polish Music Sources Website} @PL{Skany w portalu Dziedzictwo Muzyki Polskiej w otwartym dostępie}
!!!IIIF:
!!!ONB-nifc: UWAGA: części Mszy: Kyrie, Gloria, Credo, Offertorium, Sanctus, Agnus Dei
!!!AIN: 1 alto 1 bass 1 cbass 1 cello 2 clars 2 clrno 2 cor 1 organ 1 soprn 1 tenor 1 timpa 1 troma 1 tromb 1 tromt
!!!OMD:
!!!OMD-mod: Andante
!!!key: F
**kern	**fba	**dynam	**kern	**dynam	**kern	**text	**dynam	**kern	**text	**dynam	**kern	**text	**dynam	**kern	**text	**dynam	**kern	**kern	**dynam	**kern	**dynam	**kern	**dynam	**kern	**kern	**kern	**dynam	**kern	**dynam	**kern	**dynam	**kern	**dynam
*	*	*	*	*	*group3	*	*	*group3	*	*	*group3	*	*	*group3	*	*	*	*group2	*	*group2	*	*group2	*	*group2	*group2	*group2	*	*group2	*	*group1	*	*group1	*
*part16	*part16	*part16	*part15	*part15	*part14	*part14	*part14	*part13	*part13	*part13	*part12	*part12	*part12	*part11	*part11	*part11	*part10	*part9	*part9	*part8	*part8	*part7	*part7	*part6	*part5	*part4	*part4	*part3	*part3	*part2	*part2	*part1	*part1
*staff16	*	*	*staff15	*	*staff14	*staff14	*	*staff13	*staff13	*	*staff12	*staff12	*	*staff11	*staff11	*	*staff10	*staff9	*	*staff8	*	*staff7	*	*staff6	*staff5	*staff4	*	*staff3	*	*staff2	*	*staff1	*
*I"Organo.	*	*	*I"Baſso e Violoncello.	*	*I"Baſso.	*	*	*I"Tenore.	*	*	*I"Alto.	*	*	*I"Soprano.	*	*	*I"[Timpani]	*I"Trombone di Baſso.	*	*I"Trombone di Tenore.	*	*I"Trombone di Alto.	*	*I"Clarino 2do.	*I"Clarino 1mo.	*I"Corno 2do.	*	*I"Corno 1mo	*	*I"Clarinetto 2do in B.	*	*I"Clarinetto 1mo in B.	*
*mI"Organo	*	*	*mI"Violoncello et Contrabasso	*	*mI"Basso	*	*	*mI"Tenore	*	*	*mI"Alto	*	*	*mI"Soprano	*	*	*mI"Timpani	*mI"Trombone Basso	*	*mI"Trombone Tenore	*	*mI"Trombone Alto	*	*mI"Clarino II	*mI"Clarino I	*mI"Corno II in F	*	*mI"Corno I in F	*	*mI"Clarinetto II in Bb	*	*mI"Clarinetto I in Bb	*
*I'org	*	*	*I'vlc	*	*I'B	*	*	*I'T	*	*	*I'A	*	*	*I'S	*	*	*I'timp	*I'b-trb	*	*I't-trb	*	*I'a-trb	*	*I'clno 2	*I'clno 1	*I'cor 2	*	*I'cor 1	*	*I'cl 2 in B|b	*	*I'cl 1 in B|b	*
*	*	*	*	*	*	*	*	*	*	*	*	*	*	*	*	*	*	*	*	*	*	*	*	*	*	*mI'cor 2 in F	*	*mI'cor 1 in F	*	*	*	*	*
*Iorgan	*	*	*Icbass&Icello	*	*Ibass	*	*	*Itenor	*	*	*Ialto	*	*	*Isoprn	*	*	*Itimpa	*Itromb	*	*Itromt	*	*Itroma	*	*Iclrno	*Iclrno	*Icor	*	*Icor	*	*Iclars	*	*Iclars	*
*ICklav	*	*	*ICstr	*	*ICvox	*	*	*ICvox	*	*	*ICvox	*	*	*ICvox	*	*	*ICidio	*ICbras	*	*ICbras	*	*ICbras	*	*ICbras	*ICbras	*ICbras	*	*ICbras	*	*ICww	*	*ICww	*
*IGcont	*	*	*	*	*IGcoro	*	*	*IGcoro	*	*	*IGcoro	*	*	*IGcoro	*	*	*	*	*	*	*	*	*	*	*	*	*	*	*	*	*	*	*
*clefF4	*	*	*clefF4	*	*clefF4	*	*	*clefC4	*	*	*clefC3	*	*	*clefC1	*	*	*clefF4	*clefF4	*	*clefC4	*	*clefC3	*	*	*	*clefG2	*	*clefG2	*	*clefG2	*	*clefG2	*
*	*	*	*	*	*	*	*	*mclefGv2	*	*	*mclefG2	*	*	*mclefG2	*	*	*	*	*	*	*	*	*	*	*	*	*	*	*	*	*	*	*
*	*	*	*	*	*	*	*	*	*	*	*	*	*	*	*	*	*tacet	*	*	*	*	*	*	*tacet	*tacet	*	*	*	*	*	*	*	*
*	*	*	*	*	*	*	*	*	*	*	*	*	*	*	*	*	*	*	*	*	*	*	*	*	*	*ITrd4c7	*	*ITrd4c7	*	*ITrd1c2	*	*ITrd1c2	*
*k[b-]	*	*	*k[b-]	*	*k[b-]	*	*	*k[b-]	*	*	*k[b-]	*	*	*k[b-]	*	*	*	*k[b-]	*	*k[b-]	*	*k[b-]	*	*	*	*k[b-]	*	*k[b-]	*	*k[b-]	*	*k[b-]	*
*F:	*	*	*F:	*	*F:	*	*	*F:	*	*	*F:	*	*	*F:	*	*	*F:	*F:	*	*F:	*	*F:	*	*F:	*F:	*F:	*	*F:	*	*F:	*	*F:	*
*M2/2	*	*	*M2/2	*	*M2/2	*	*	*M2/2	*	*	*M2/2	*	*	*M2/2	*	*	*M2/2	*M2/2	*	*M2/2	*	*M2/2	*	*M2/2	*M2/2	*M2/2	*	*M2/2	*	*M2/2	*	*M2/2	*
*met(c|)	*	*	*met(c|)	*	*met(c|)	*	*	*met(c|)	*	*	*met(c|)	*	*	*met(c|)	*	*	*met(c|)	*met(c|)	*	*met(c|)	*	*met(c|)	*	*met(c|)	*met(c|)	*met(c|)	*	*met(c|)	*	*met(c|)	*	*met(c|)	*
*mmet(c|)	*	*	*mmet(c|)	*	*mmet(c|)	*	*	*mmet(c|)	*	*	*mmet(c|)	*	*	*mmet(c|)	*	*	*mmet(c|)	*mmet(c|)	*	*mmet(c|)	*	*mmet(c|)	*	*mmet(c|)	*mmet(c|)	*mmet(c|)	*	*mmet(c|)	*	*mmet(c|)	*	*mmet(c|)	*
=1	=1	=1	=1	=1	=1	=1	=1	=1	=1	=1	=1	=1	=1	=1	=1	=1	=1	=1	=1	=1	=1	=1	=1	=1	=1	=1	=1	=1	=1	=1	=1	=1	=1
!	!	!	!	!	!LO:MO:mod=*null:null	!	!	!LO:MO:mod=*null:null	!	!	!LO:MO:mod=*null:null	!	!	!LO:MO:mod=*null:null	!	!	!	!	!	!	!	!	!	!	!	!	!	!	!	!	!	!	!
*	*	*	*	*	*2\right	*	*	*2\right	*	*	*2\right	*	*	*2\right	*	*	*	*	*	*	*	*	*	*	*	*	*	*	*	*	*	*	*
!	!	!	!	!	!	!	!	!	!	!	!	!	!LO:DY:t= :mod=%s	!	!	!	!	!LO:TX:a:t=7:mod=	!	!LO:TX:a:t=7:mod=	!	!LO:TX:a:t=7:mod=	!	!	!	!LO:TX:a:t=7:mod=	!	!LO:TX:a:t=7:mod=	!	!LO:TX:a:t=7:mod=	!	!LO:TX:a:t=7:mod=	!
!	!	!	!	!	!	!	!	!	!	!	!	!	!LO:MO:mod=!LO&colon;DY&colon;ed=brack	!	!	!	!LO:MO:mod=!LO&colon;TX&colon;a&colon;B&colon;t=TACET	!	!	!	!	!	!	!LO:MO:mod=!LO&colon;TX&colon;a&colon;B&colon;t=TACET	!LO:MO:mod=!LO&colon;TX&colon;a&colon;B&colon;t=TACET	!	!	!	!	!	!	!	!
!LO:TX:a:B:t=Andante:mod=	!	!LO:DY:t=po.:mod=%s	!LO:TX:a:B:t=Andante:mod=	!LO:DY:t=po:mod=%s	!LO:TX:a:B:t=Andante:mod=	!LO:MO:mod=Przyj-	!LO:DY:rj:a:t=fo.:mod=p 	!LO:TX:a:B:t=Andante:mod=	!LO:MO:mod=Przyj-	!LO:DY:rj:a:t=po:mod=%s	!LO:TX:a:B:t=Andante:mod=	!LO:MO:mod=Przyj-	!null	!LO:TX:a:B:t=Andante:mod=	!LO:MO:mod=Przyj-	!LO:DY:a:t=po&colon;:mod=%s	!LO:TX:a:i:t=Offertorium tacet	!LO:TX:a:B:t=Andante:mod=	!	!LO:TX:a:B:t=Andante:mod=	!	!LO:TX:a:B:t=Andante:mod=	!	!LO:TX:a:i:t=Offertorium tacet.	!LO:TX:a:i:t=Offertorium tacet.	!LO:TX:a:B:t=Andante:mod=	!	!LO:TX:a:B:t=Andante:mod=	!	!LO:TX:a:B:t=Andante:mod=	!	!LO:TX:a:B:t=Andante:mod=	!
1F\	.	p	1F\	p	2.F\	Przyi-	f	2.c\	Przyi-	p	2.f\	Przyi-	p	2.a\	Przyi-	p	1ryy	00r	.	00r	.	00r	.	1ryy	1ryy	00r	.	00r	.	00r	.	00r	.
!	!	!	!	!	!	!LO:MO:mod=-mij	!	!	!LO:MO:mod=-mij	!	!	!LO:MO:mod=-mij	!	!	!LO:MO:mod=-mij	!	!	!	!	!	!	!	!	!	!	!	!	!	!	!	!	!	!
.	.	.	.	.	4F\	-myi	.	4c\	-myi	.	4f\	-myi	.	4a\	-myi	.	.	.	.	.	.	.	.	.	.	.	.	.	.	.	.	.	.
=2	=2	=2	=2	=2	=2	=2	=2	=2	=2	=2	=2	=2	=2	=2	=2	=2	=2	=2	=2	=2	=2	=2	=2	=2	=2	=2	=2	=2	=2	=2	=2	=2	=2
2BB-/	.	.	2BB-/	.	2BB-/	Bo-	.	2d\	Bo-	.	2f\	Bo-	.	2b-\	Bo-	.	1ryy	.	.	.	.	.	.	1ryy	1ryy	.	.	.	.	.	.	.	.
2BB-/	.	.	2BB-/	.	2BB-/	-że	.	2d\	-że	.	2f\	-że	.	2b-\	-że	.	.	.	.	.	.	.	.	.	.	.	.	.	.	.	.	.	.
=3	=3	=3	=3	=3	=3	=3	=3	=3	=3	=3	=3	=3	=3	=3	=3	=3	=3	=3	=3	=3	=3	=3	=3	=3	=3	=3	=3	=3	=3	=3	=3	=3	=3
1C/	.	.	1C/	.	2C/	tę	.	2B-\	tę	.	2e\	tę	.	2g\	tę	.	1ryy	.	.	.	.	.	.	1ryy	1ryy	.	.	.	.	.	.	.	.
!	!	!	!	!	!	!LO:MO:mod=o-	!	!	!LO:MO:mod=o-	!	!	!LO:MO:mod=o-	!	!	!LO:MO:mod=o-	!	!	!	!	!	!	!	!	!	!	!	!	!	!	!	!	!	!
.	.	.	.	.	2C/	O-	.	2B-\	O-	.	2e\	O-	.	2g\	O-	.	.	.	.	.	.	.	.	.	.	.	.	.	.	.	.	.	.
=4	=4	=4	=4	=4	=4	=4	=4	=4	=4	=4	=4	=4	=4	=4	=4	=4	=4	=4	=4	=4	=4	=4	=4	=4	=4	=4	=4	=4	=4	=4	=4	=4	=4
2C#X/	6	.	2C#X/	.	2.C#X/	-fia-	.	2.A\	-fia-	.	2.e\	-fia-	.	2.a\	-fia-	.	1ryy	.	.	.	.	.	.	1ryy	1ryy	.	.	.	.	.	.	.	.
2C#/	5	.	2C#/	.	.	.	.	.	.	.	.	.	.	.	.	.	.	.	.	.	.	.	.	.	.	.	.	.	.	.	.	.	.
.	.	.	.	.	4C#/	-rę	.	4A\	-rę	.	4e\	-rę	.	4g\	-rę	.	.	.	.	.	.	.	.	.	.	.	.	.	.	.	.	.	.
=5	=5	=5	=5	=5	=5	=5	=5	=5	=5	=5	=5	=5	=5	=5	=5	=5	=5	=5	=5	=5	=5	=5	=5	=5	=5	=5	=5	=5	=5	=5	=5	=5	=5
!	!	!	!	!	!	!	!	!LO:PB:g=original	!	!	!	!	!	!	!	!	!	!	!	!	!	!	!	!	!	!	!	!	!	!	!	!	!
1D\	n	.	1D\	.	2D\	któ-	.	2A\	któ-	.	2d\	któ-	.	2f/	któ-	.	1ryy	0r	.	0r	.	0r	.	1ryy	1ryy	0r	.	0r	.	0r	.	0r	.
.	.	.	.	.	2D\	-rą	.	2A\	-rą	.	2d\	-rą	.	2f/	-rą	.	.	.	.	.	.	.	.	.	.	.	.	.	.	.	.	.	.
=6	=6	=6	=6	=6	=6	=6	=6	=6	=6	=6	=6	=6	=6	=6	=6	=6	=6	=6	=6	=6	=6	=6	=6	=6	=6	=6	=6	=6	=6	=6	=6	=6	=6
!	!	!	!	!	!LO:PB:g=original	!LO:MO:mod=Ci	!	!	!	!	!LO:PB:g=original	!	!	!LO:PB:g=original	!	!	!	!	!	!	!	!	!	!	!	!	!	!	!	!	!	!	!
2BB-/	6	.	2BB-/	.	2.BB-/	ci	.	2.B-\	Ci	.	2.d\	Ci	.	2.g\	Ci	.	1ryy	.	.	.	.	.	.	1ryy	1ryy	.	.	.	.	.	.	.	.
2BB-/	.	.	2BB-/	.	.	.	.	.	.	.	.	.	.	.	.	.	.	.	.	.	.	.	.	.	.	.	.	.	.	.	.	.	.
!	!	!	!	!	!	!LO:MO:mod=twój	!	!	!LO:MO:mod=twój	!	!	!LO:MO:mod=twój	!	!	!LO:MO:mod=twój	!	!	!	!	!	!	!	!	!	!	!	!	!	!	!	!	!	!
.	.	.	.	.	4BB-/	twóy	.	4B-\	twóy	.	4d\	twóy	.	4g\	twóy	.	.	.	.	.	.	.	.	.	.	.	.	.	.	.	.	.	.
=7	=7	=7	=7	=7	=7	=7	=7	=7	=7	=7	=7	=7	=7	=7	=7	=7	=7	=7	=7	=7	=7	=7	=7	=7	=7	=7	=7	=7	=7	=7	=7	=7	=7
!	!	!	!	!	!	!	!	!	!	!	!	!	!	!	!	!	!	!	!	!	!	!	!	!	!	!LO:TX:t=P:problem=brak zapisnej pauzy	!	!	!	!	!	!	!
1BB-/	6\	.	1BB-/^	.	2BB-/	kap-	.	2B-\	kap-	.	2d\	kap-	.	2g#X\	kap-	.	1ryy	1r	.	1r	.	1r	.	1ryy	1ryy	1ryy	.	1r	.	1r	.	1r	.
.	.	.	.	.	2BB-/	-łan	.	2d\	-łan	.	2d\	-łan	.	2g#\	-łan	.	.	.	.	.	.	.	.	.	.	.	.	.	.	.	.	.	.
=8	=8	=8	=8	=8	=8	=8	=8	=8	=8	=8	=8	=8	=8	=8	=8	=8	=8	=8	=8	=8	=8	=8	=8	=8	=8	=8	=8	=8	=8	=8	=8	=8	=8
2AA;/	#	.	2AA;/	.	2AA;/	czy-	.	2c#X;\	czy-	.	2e;\	czy-	.	2a;\	czy-	.	1ryy	1r;	.	1r;	.	1r;	.	1ryy	1ryy	1r;	.	1r;	.	1r;	.	1r;	.
2r	.	.	2r	.	4AA/	-ni	.	4c#\	-ni	.	4e\	-ni	.	4a\	-ni	.	.	.	.	.	.	.	.	.	.	.	.	.	.	.	.	.	.
.	.	.	.	.	4r	.	.	4r	.	.	4r	.	.	4r	.	.	.	.	.	.	.	.	.	.	.	.	.	.	.	.	.	.	.
=9	=9	=9	=9	=9	=9	=9	=9	=9	=9	=9	=9	=9	=9	=9	=9	=9	=9	=9	=9	=9	=9	=9	=9	=9	=9	=9	=9	=9	=9	=9	=9	=9	=9
!	!	!	!LO:PB:g=original	!	!	!	!	!	!	!	!LO:TX:a:t=8:mod=	!	!	!LO:LB:g=original	!	!	!	!	!	!	!	!	!	!	!	!	!	!	!	!	!	!	!
!	!	!	!LO:MO:mod=!LO&colon;TX&colon;a&colon;i&colon;t=violoncello	!	!	!	!	!	!	!	!	!	!	!	!	!	!	!	!	!	!	!	!	!	!	!	!	!	!	!	!	!	!
!	!	!	!LO:TX:a:t=Violonc&colon;	!	!LO:TX:a:t=24:mod=	!	!	!LO:TX:a:t=16:mod=	!	!	!	!	!	!	!LO:MO:mod=da-	!	!	!LO:TX:a:t=56:mod=	!	!LO:TX:a:t=56:mod=	!	!LO:TX:a:t=56:mod=	!	!	!	!LO:TX:a:t=48:mod=	!	!LO:TX:a:t=48:mod=	!	!LO:TX:a:t=40:mod=	!	!LO:TX:a:t=40:mod=	!
1F\	.	.	1F\	.	00r	.	.	00r	.	.	00r	.	.	2a\	Da-	.	1ryy	1r	.	1r	.	1r	.	1ryy	1ryy	1r	.	1r	.	1r	.	1r	.
!	!	!	!	!	!	!	!	!	!	!	!	!	!	!	!LO:MO:mod=-ruj	!	!	!	!	!	!	!	!	!	!	!	!	!	!	!	!	!	!
.	.	.	.	.	.	.	.	.	.	.	.	.	.	(4g\	-ruy	.	.	.	.	.	.	.	.	.	.	.	.	.	.	.	.	.	.
.	.	.	.	.	.	.	.	.	.	.	.	.	.	4a\)	.	.	.	.	.	.	.	.	.	.	.	.	.	.	.	.	.	.	.
!LO:PB:g=original	!	!	!	!	!	!	!	!	!	!	!	!	!	!	!	!	!	!	!	!	!	!	!	!	!	!	!	!	!	!	!	!	!
=10	=10	=10	=10	=10	=10	=10	=10	=10	=10	=10	=10	=10	=10	=10	=10	=10	=10	=10	=10	=10	=10	=10	=10	=10	=10	=10	=10	=10	=10	=10	=10	=10	=10
!LO:MO:mod=*null:null	!	!	!LO:MO:mod=*null:null	!	!	!	!	!	!	!	!	!	!	!	!	!	!	!	!	!	!	!	!	!	!	!	!	!	!	!	!	!	!
*2\right	*	*	*2\right	*	*	*	*	*	*	*	*	*	*	*	*	*	*	*	*	*	*	*	*	*	*	*	*	*	*	*	*	*	*
2E\	6_ 5_	.	2E\	.	.	.	.	.	.	.	.	.	.	2.b-\	nam	.	1ryy	1r	.	1r	.	1r	.	1ryy	1ryy	1r	.	1r	.	1r	.	1r	.
2F\	5 3	.	2F\	.	.	.	.	.	.	.	.	.	.	.	.	.	.	.	.	.	.	.	.	.	.	.	.	.	.	.	.	.	.
.	.	.	.	.	.	.	.	.	.	.	.	.	.	4a\	za	.	.	.	.	.	.	.	.	.	.	.	.	.	.	.	.	.	.
=11	=11	=11	=11	=11	=11	=11	=11	=11	=11	=11	=11	=11	=11	=11	=11	=11	=11	=11	=11	=11	=11	=11	=11	=11	=11	=11	=11	=11	=11	=11	=11	=11	=11
2B-\	6 5	.	2B-\	.	.	.	.	.	.	.	.	.	.	(2g\	grze-	.	1ryy	1r	.	1r	.	1r	.	1ryy	1ryy	1r	.	1r	.	1r	.	1r	.
2c\	n	.	2c\	.	.	.	.	.	.	.	.	.	.	4f\)	.	.	.	.	.	.	.	.	.	.	.	.	.	.	.	.	.	.	.
.	.	.	.	.	.	.	.	.	.	.	.	.	.	4g\	-chy	.	.	.	.	.	.	.	.	.	.	.	.	.	.	.	.	.	.
=12	=12	=12	=12	=12	=12	=12	=12	=12	=12	=12	=12	=12	=12	=12	=12	=12	=12	=12	=12	=12	=12	=12	=12	=12	=12	=12	=12	=12	=12	=12	=12	=12	=12
2F\	.	.	2F\	.	.	.	.	.	.	.	.	.	.	2a\	ka-	.	1ryy	1r	.	1r	.	1r	.	1ryy	1ryy	1r	.	1r	.	1r	.	1r	.
2r	.	.	2r	.	.	.	.	.	.	.	.	.	.	4f/	-rę	.	.	.	.	.	.	.	.	.	.	.	.	.	.	.	.	.	.
.	.	.	.	.	.	.	.	.	.	.	.	.	.	4r	.	.	.	.	.	.	.	.	.	.	.	.	.	.	.	.	.	.	.
=13	=13	=13	=13	=13	=13	=13	=13	=13	=13	=13	=13	=13	=13	=13	=13	=13	=13	=13	=13	=13	=13	=13	=13	=13	=13	=13	=13	=13	=13	=13	=13	=13	=13
2A\	6	.	2A\	.	00r	.	.	00r	.	.	00r	.	.	4f/	pro-	.	1ryy	1r	.	1r	.	1r	.	1ryy	1ryy	1r	.	1r	.	1r	.	1r	.
!	!	!	!	!	!	!	!	!	!	!	!	!	!	!	!LO:MO:mod=-si-	!	!	!	!	!	!	!	!	!	!	!	!	!	!	!	!	!	!
.	.	.	.	.	.	.	.	.	.	.	.	.	.	(4f/	-sie-	.	.	.	.	.	.	.	.	.	.	.	.	.	.	.	.	.	.
4G\	6 4	.	4G\	.	.	.	.	.	.	.	.	.	.	4g/)	.	.	.	.	.	.	.	.	.	.	.	.	.	.	.	.	.	.	.
4F\	8 3	.	4F\	.	.	.	.	.	.	.	.	.	.	4a\	-my	.	.	.	.	.	.	.	.	.	.	.	.	.	.	.	.	.	.
=14	=14	=14	=14	=14	=14	=14	=14	=14	=14	=14	=14	=14	=14	=14	=14	=14	=14	=14	=14	=14	=14	=14	=14	=14	=14	=14	=14	=14	=14	=14	=14	=14	=14
2E\	6 5	.	2E\	.	.	.	.	.	.	.	.	.	.	(2b-\	Cię	.	1ryy	1r	.	1r	.	1r	.	1ryy	1ryy	1r	.	1r	.	1r	.	1r	.
2F\	.	.	2F\	.	.	.	.	.	.	.	.	.	.	2a\)	.	.	.	.	.	.	.	.	.	.	.	.	.	.	.	.	.	.	.
=15	=15	=15	=15	=15	=15	=15	=15	=15	=15	=15	=15	=15	=15	=15	=15	=15	=15	=15	=15	=15	=15	=15	=15	=15	=15	=15	=15	=15	=15	=15	=15	=15	=15
!	!	!	!	!	!	!	!	!	!	!	!	!	!	!LO:PB:g=original	!LO:MO:mod=w_Twej	!	!	!	!	!	!	!	!	!	!	!	!	!	!	!	!	!	!
2E\	6	.	2E\	.	.	.	.	.	.	.	.	.	.	2g\	w_Twey	.	1ryy	1r	.	1r	.	1r	.	1ryy	1ryy	1r	.	1r	.	1r	.	1r	.
2D\	5 3_	.	2D\	.	.	.	.	.	.	.	.	.	.	(4a\	świą-	.	.	.	.	.	.	.	.	.	.	.	.	.	.	.	.	.	.
.	6 x	.	.	.	.	.	.	.	.	.	.	.	.	4bn\)	.	.	.	.	.	.	.	.	.	.	.	.	.	.	.	.	.	.	.
=16	=16	=16	=16	=16	=16	=16	=16	=16	=16	=16	=16	=16	=16	=16	=16	=16	=16	=16	=16	=16	=16	=16	=16	=16	=16	=16	=16	=16	=16	=16	=16	=16	=16
2C\	8_ 3	.	2C\	.	.	.	.	.	.	.	.	.	.	1cc\	-ty-	.	1ryy	1r	.	1r	.	1r	.	1ryy	1ryy	1r	.	1r	.	1r	.	1r	.
4D\	_ 3	.	4D\	.	.	.	.	.	.	.	.	.	.	.	.	.	.	.	.	.	.	.	.	.	.	.	.	.	.	.	.	.	.
4E\	_ 3	.	4E\	.	.	.	.	.	.	.	.	.	.	.	.	.	.	.	.	.	.	.	.	.	.	.	.	.	.	.	.	.	.
=17	=17	=17	=17	=17	=17	=17	=17	=17	=17	=17	=17	=17	=17	=17	=17	=17	=17	=17	=17	=17	=17	=17	=17	=17	=17	=17	=17	=17	=17	=17	=17	=17	=17
!	!	!	!	!	!	!	!	!	!	!	!	!LO:MO:mod=da-	!	!	!LO:MO:mod=-ni.	!	!	!	!	!	!	!	!	!	!	!	!	!	!	!	!	!	!
1F\	x	.	1F\	.	00r	.	.	00r	.	.	2a\	Da-	.	2cc\	-ni	.	1ryy	1r	.	1r	.	1r	.	1ryy	1ryy	1r	.	1r	.	1r	.	1r	.
!	!	!	!	!	!	!	!	!	!	!	!	!LO:MO:mod=-ruj	!	!	!	!	!	!	!	!	!	!	!	!	!	!	!	!	!	!	!	!	!
.	.	.	.	.	.	.	.	.	.	.	(4g\	-ruy	.	4r	.	.	.	.	.	.	.	.	.	.	.	.	.	.	.	.	.	.	.
.	.	.	.	.	.	.	.	.	.	.	4a\)	.	.	4cc\	Coś-	.	.	.	.	.	.	.	.	.	.	.	.	.	.	.	.	.	.
=18	=18	=18	=18	=18	=18	=18	=18	=18	=18	=18	=18	=18	=18	=18	=18	=18	=18	=18	=18	=18	=18	=18	=18	=18	=18	=18	=18	=18	=18	=18	=18	=18	=18
2BB-/	.	.	2BB-/	.	.	.	.	.	.	.	2.b-\	nam	.	2dd\	-my	.	1ryy	1r	.	1r	.	1r	.	1ryy	1ryy	1r	.	1r	.	1r	.	1r	.
2F\	.	.	2F\	.	.	.	.	.	.	.	.	.	.	2cc\	się	.	.	.	.	.	.	.	.	.	.	.	.	.	.	.	.	.	.
.	.	.	.	.	.	.	.	.	.	.	4a\	za	.	.	.	.	.	.	.	.	.	.	.	.	.	.	.	.	.	.	.	.	.
=19	=19	=19	=19	=19	=19	=19	=19	=19	=19	=19	=19	=19	=19	=19	=19	=19	=19	=19	=19	=19	=19	=19	=19	=19	=19	=19	=19	=19	=19	=19	=19	=19	=19
2G\	-	.	2G\	.	.	.	.	.	.	.	(2g\	grze-	.	2b-\	tu	.	1ryy	1r	.	1r	.	1r	.	1ryy	1ryy	1r	.	1r	.	1r	.	1r	.
2C/	4	.	2C/	.	.	.	.	.	.	.	4f\)	.	.	4cc\	zgro-	.	.	.	.	.	.	.	.	.	.	.	.	.	.	.	.	.	.
.	3	.	.	.	.	.	.	.	.	.	4g\	-chy	.	4cc\	-ma-	.	.	.	.	.	.	.	.	.	.	.	.	.	.	.	.	.	.
=20	=20	=20	=20	=20	=20	=20	=20	=20	=20	=20	=20	=20	=20	=20	=20	=20	=20	=20	=20	=20	=20	=20	=20	=20	=20	=20	=20	=20	=20	=20	=20	=20	=20
!	!	!	!LO:PB:g=original	!	!	!	!	!	!	!	!LO:PB:g=original	!	!	!	!	!	!	!	!	!	!	!	!	!	!	!	!	!	!	!	!	!	!
1F\	.	.	1F\	.	.	.	.	.	.	.	2a\	ka-	.	2.cc\	-dzi-	.	1ryy	1r	.	1r	.	1r	.	1ryy	1ryy	1r	.	1r	.	1r	.	1r	.
.	.	.	.	.	.	.	.	.	.	.	4f\	-rę	.	.	.	.	.	.	.	.	.	.	.	.	.	.	.	.	.	.	.	.	.
.	.	.	.	.	.	.	.	.	.	.	4r	.	.	4b-\	-li	.	.	.	.	.	.	.	.	.	.	.	.	.	.	.	.	.	.
=21	=21	=21	=21	=21	=21	=21	=21	=21	=21	=21	=21	=21	=21	=21	=21	=21	=21	=21	=21	=21	=21	=21	=21	=21	=21	=21	=21	=21	=21	=21	=21	=21	=21
!	!	!	!	!	!	!	!	!	!	!	!	!	!	!LO:PB:g=original	!	!	!	!	!	!	!	!	!	!	!	!	!	!	!	!	!	!	!
2FF/	.	.	2FF/	.	00r	.	.	00r	.	.	4f\	pro-	.	2a\	co	.	1ryy	1r	.	1r	.	1r	.	1ryy	1ryy	1r	.	1r	.	1r	.	1r	.
!	!	!	!	!	!	!	!	!	!	!	!	!LO:MO:mod=-si-	!	!	!	!	!	!	!	!	!	!	!	!	!	!	!	!	!	!	!	!	!
.	.	.	.	.	.	.	.	.	.	.	(4f\	-sie-	.	.	.	.	.	.	.	.	.	.	.	.	.	.	.	.	.	.	.	.	.
2F\	7 2	.	2F\	.	.	.	.	.	.	.	4g\)	.	.	(4g\	na	.	.	.	.	.	.	.	.	.	.	.	.	.	.	.	.	.	.
.	8 3	.	.	.	.	.	.	.	.	.	4a\	-my	.	4f\)	.	.	.	.	.	.	.	.	.	.	.	.	.	.	.	.	.	.	.
=22	=22	=22	=22	=22	=22	=22	=22	=22	=22	=22	=22	=22	=22	=22	=22	=22	=22	=22	=22	=22	=22	=22	=22	=22	=22	=22	=22	=22	=22	=22	=22	=22	=22
!	!	!	!	!	!	!	!	!	!	!	!	!	!	!	!LO:MO:mod=świe-	!	!	!	!	!	!	!	!	!	!	!	!	!	!	!	!	!	!
2E\	6 5	.	2E\	.	.	.	.	.	.	.	(2b-\	Cię	.	2e/	Swie-	.	1ryy	1r	.	1r	.	1r	.	1ryy	1ryy	1r	.	1r	.	1r	.	1r	.
2F\	.	.	2F\	.	.	.	.	.	.	.	2a\)	.	.	2f/	-cie	.	.	.	.	.	.	.	.	.	.	.	.	.	.	.	.	.	.
=23	=23	=23	=23	=23	=23	=23	=23	=23	=23	=23	=23	=23	=23	=23	=23	=23	=23	=23	=23	=23	=23	=23	=23	=23	=23	=23	=23	=23	=23	=23	=23	=23	=23
!LO:PB:g=original	!	!	!	!	!	!	!	!	!	!	!	!LO:MO:mod=w_Twej	!	!	!	!	!	!	!	!	!	!	!	!	!	!	!	!	!	!	!	!	!
2G\	6 4	.	2G\	.	.	.	.	.	.	.	2g\	w_Twey	.	(2e/	lu-	.	1ryy	1r	.	1r	.	1r	.	1ryy	1ryy	1r	.	1r	.	1r	.	1r	.
!	!	!	!	!	!	!	!	!	!	!	!	!LO:MO:mod=świą-	!	!	!	!	!	!	!	!	!	!	!	!	!	!	!	!	!	!	!	!	!
2GG/	7_ 5_ 2	.	2GG/	.	.	.	.	.	.	.	(4a\	swią-	.	4d/)	.	.	.	.	.	.	.	.	.	.	.	.	.	.	.	.	.	.	.
.	x x 3	.	.	.	.	.	.	.	.	.	4bn\)	.	.	4d/	-dzi	.	.	.	.	.	.	.	.	.	.	.	.	.	.	.	.	.	.
=24	=24	=24	=24	=24	=24	=24	=24	=24	=24	=24	=24	=24	=24	=24	=24	=24	=24	=24	=24	=24	=24	=24	=24	=24	=24	=24	=24	=24	=24	=24	=24	=24	=24
2C\	8_ 3	.	2C/	.	.	.	.	.	.	.	1cc\	-ty-	.	2e/	ży-	.	1ryy	1r	.	1r	.	1r	.	1ryy	1ryy	1r	.	1r	.	1r	.	1r	.
!	!	!	!	!	!	!	!	!	!	!	!	!	!	!	!LO:MO:mod=-je	!	!	!	!	!	!	!	!	!	!	!	!	!	!	!	!	!	!
4D\	_ 3	.	4D/	.	.	.	.	.	.	.	.	.	.	2c/	-ie	.	.	.	.	.	.	.	.	.	.	.	.	.	.	.	.	.	.
4E\	_ 3	.	4E/	.	.	.	.	.	.	.	.	.	.	.	.	.	.	.	.	.	.	.	.	.	.	.	.	.	.	.	.	.	.
=25	=25	=25	=25	=25	=25	=25	=25	=25	=25	=25	=25	=25	=25	=25	=25	=25	=25	=25	=25	=25	=25	=25	=25	=25	=25	=25	=25	=25	=25	=25	=25	=25	=25
!	!	!	!	!	!	!	!	!LO:LB:g=original	!LO:MO:mod=da-	!	!	!LO:MO:mod=-ni.	!	!	!	!	!	!	!	!	!	!	!	!	!	!	!	!	!	!	!	!	!
1F\	x	.	1F\	.	00r	.	.	2A\	Da-	.	2cc\	-ni	.	2r	.	.	1ryy	1r	.	1r	.	1r	.	1ryy	1ryy	1r	.	1r	.	1r	.	1r	.
!	!	!	!	!	!	!	!	!	!LO:MO:mod=-ruj	!	!	!	!	!	!	!	!	!	!	!	!	!	!	!	!	!	!	!	!	!	!	!	!
.	.	.	.	.	.	.	.	(4G\	-ruy	.	4r	.	.	2f/	niech	.	.	.	.	.	.	.	.	.	.	.	.	.	.	.	.	.	.
.	.	.	.	.	.	.	.	4A\)	.	.	4cc\	Coś-	.	.	.	.	.	.	.	.	.	.	.	.	.	.	.	.	.	.	.	.	.
=26	=26	=26	=26	=26	=26	=26	=26	=26	=26	=26	=26	=26	=26	=26	=26	=26	=26	=26	=26	=26	=26	=26	=26	=26	=26	=26	=26	=26	=26	=26	=26	=26	=26
!	!	!	!	!	!	!	!	!	!	!	!LO:PB:g=original	!	!	!	!	!	!	!	!	!	!	!	!	!	!	!	!	!	!	!	!	!	!
2BB-/	.	.	2BB-/	.	.	.	.	2.B-\	nam	.	2dd\	-my	.	2f/	ich	.	1ryy	1r	.	1r	.	1r	.	1ryy	1ryy	1r	.	1r	.	1r	.	1r	.
2F\	.	.	2F\	.	.	.	.	.	.	.	2cc\	się	.	2f/	grzech	.	.	.	.	.	.	.	.	.	.	.	.	.	.	.	.	.	.
.	.	.	.	.	.	.	.	4A\	za	.	.	.	.	.	.	.	.	.	.	.	.	.	.	.	.	.	.	.	.	.	.	.	.
=27	=27	=27	=27	=27	=27	=27	=27	=27	=27	=27	=27	=27	=27	=27	=27	=27	=27	=27	=27	=27	=27	=27	=27	=27	=27	=27	=27	=27	=27	=27	=27	=27	=27
!	!	!	!	!	!	!	!	!	!	!	!	!	!	!LO:PB:g=original	!	!	!	!	!	!	!	!	!	!	!	!	!	!	!	!	!	!	!
2G\	7	.	2G\	.	.	.	.	(2G/	grze-	.	2b-\	tu	.	2g\	co	.	1ryy	1r	.	1r	.	1r	.	1ryyyy	1ryy	1r	.	1r	.	1r	.	1r	.
2C/	7	.	2C/	.	.	.	.	4F/)	.	.	4cc\	zgro-	.	4a\	po-	.	.	.	.	.	.	.	.	.	.	.	.	.	.	.	.	.	.
.	.	.	.	.	.	.	.	4G/	-chy	.	4cc\	-ma-	.	4e/	-peł-	.	.	.	.	.	.	.	.	.	.	.	.	.	.	.	.	.	.
=28	=28	=28	=28	=28	=28	=28	=28	=28	=28	=28	=28	=28	=28	=28	=28	=28	=28	=28	=28	=28	=28	=28	=28	=28	=28	=28	=28	=28	=28	=28	=28	=28	=28
1F\	.	.	1F\	.	.	.	.	2A/	ka-	.	2.cc\	-dzi-	.	2.f/	-ni-	.	1ryy	1r	.	1r	.	1r	.	1ryy	1ryy	1r	.	1r	.	1r	.	1r	.
.	.	.	.	.	.	.	.	4F/	-rę	.	.	.	.	.	.	.	.	.	.	.	.	.	.	.	.	.	.	.	.	.	.	.	.
.	.	.	.	.	.	.	.	4r	.	.	4b-\	-li	.	4c/	-li	.	.	.	.	.	.	.	.	.	.	.	.	.	.	.	.	.	.
=29	=29	=29	=29	=29	=29	=29	=29	=29	=29	=29	=29	=29	=29	=29	=29	=29	=29	=29	=29	=29	=29	=29	=29	=29	=29	=29	=29	=29	=29	=29	=29	=29	=29
2FF/	.	.	2FF/	.	00r	.	.	4F/	pro-	.	2a\	co	.	1cc\	ta	.	1ryy	1r	.	1r	.	1r	.	1ryy	1ryy	1r	.	1r	.	1r	.	1r	.
!	!	!	!	!	!	!	!	!	!LO:MO:mod=-si-	!	!	!	!	!	!	!	!	!	!	!	!	!	!	!	!	!	!	!	!	!	!	!	!
.	.	.	.	.	.	.	.	(4F/	-sie-	.	.	.	.	.	.	.	.	.	.	.	.	.	.	.	.	.	.	.	.	.	.	.	.
2F\	.	.	2F\	.	.	.	.	4G/)	.	.	(4g\	na	.	.	.	.	.	.	.	.	.	.	.	.	.	.	.	.	.	.	.	.	.
.	.	.	.	.	.	.	.	4A/	-my	.	4f\)	.	.	.	.	.	.	.	.	.	.	.	.	.	.	.	.	.	.	.	.	.	.
=30	=30	=30	=30	=30	=30	=30	=30	=30	=30	=30	=30	=30	=30	=30	=30	=30	=30	=30	=30	=30	=30	=30	=30	=30	=30	=30	=30	=30	=30	=30	=30	=30	=30
!	!	!	!	!	!	!	!	!	!	!	!	!LO:MO:mod=świe-	!	!	!LO:MO:mod=świę-	!	!	!	!	!	!	!	!	!	!	!	!	!	!	!	!	!	!
2E\	6 5	.	2E\	.	.	.	.	(2B-\	Cię	.	2e\	Świe-	.	2cc\	Swię-	.	1ryy	1r	.	1r	.	1r	.	1ryy	1ryy	1r	.	1r	.	1r	.	1r	.
2F\	.	.	2F\	.	.	.	.	2A\)	.	.	2f\	-cie	.	4cc\	-ta	.	.	.	.	.	.	.	.	.	.	.	.	.	.	.	.	.	.
!	!	!	!	!	!	!	!	!	!	!	!	!	!	!	!LO:MO:mod=o-	!	!	!	!	!	!	!	!	!	!	!	!	!	!	!	!	!	!
.	.	.	.	.	.	.	.	.	.	.	.	.	.	4cc\	O-	.	.	.	.	.	.	.	.	.	.	.	.	.	.	.	.	.	.
=31	=31	=31	=31	=31	=31	=31	=31	=31	=31	=31	=31	=31	=31	=31	=31	=31	=31	=31	=31	=31	=31	=31	=31	=31	=31	=31	=31	=31	=31	=31	=31	=31	=31
!	!	!	!LO:PB:g=original	!	!	!	!	!LO:PB:g=original	!LO:MO:mod=w_Twej	!	!	!	!	!	!	!	!	!	!	!	!	!	!	!	!	!	!	!	!	!	!	!	!
2E\	6	.	2E\	.	.	.	.	2G/	w_Twey	.	(2e\	lu-	.	2cc\	-fia-	.	1ryy	1r	.	1r	.	1r	.	1ryy	1ryy	1r	.	1r	.	1r	.	1r	.
!	!	!	!	!	!	!	!	!	!LO:MO:mod=świą-	!	!	!	!	!	!	!	!	!	!	!	!	!	!	!	!	!	!	!	!	!	!	!	!
2D\	5	.	2D\	.	.	.	.	(4A\	swią-	.	4d\)	.	.	2g\	-ra	.	.	.	.	.	.	.	.	.	.	.	.	.	.	.	.	.	.
.	6	.	.	.	.	.	.	4Bn\)	.	.	4d\	-dzi	.	.	.	.	.	.	.	.	.	.	.	.	.	.	.	.	.	.	.	.	.
=32	=32	=32	=32	=32	=32	=32	=32	=32	=32	=32	=32	=32	=32	=32	=32	=32	=32	=32	=32	=32	=32	=32	=32	=32	=32	=32	=32	=32	=32	=32	=32	=32	=32
!	!	!	!	!	!	!	!	!	!	!	!LO:PB:g=original	!	!	!	!	!	!	!	!	!	!	!	!	!	!	!	!	!	!	!	!	!	!
2C/	.	.	2C\	.	.	.	.	1c\	-ty-	.	2e\	ży-	.	2g\	zmy-	.	1ryy	1r	.	1r	.	1r	.	1ryy	1ryy	1r	.	1r	.	1r	.	1r	.
!	!	!	!	!	!	!	!	!	!	!	!	!LO:MO:mod=-je	!	!	!LO:MO:mod=-je.	!	!	!	!	!	!	!	!	!	!	!	!	!	!	!	!	!	!
2CC/	4 2	.	2CC/	.	.	.	.	.	.	.	2c\	-ie	.	(4f\	-ie	.	.	.	.	.	.	.	.	.	.	.	.	.	.	.	.	.	.
.	5 3	.	.	.	.	.	.	.	.	.	.	.	.	4g\)	.	.	.	.	.	.	.	.	.	.	.	.	.	.	.	.	.	.	.
=33	=33	=33	=33	=33	=33	=33	=33	=33	=33	=33	=33	=33	=33	=33	=33	=33	=33	=33	=33	=33	=33	=33	=33	=33	=33	=33	=33	=33	=33	=33	=33	=33	=33
!	!	!	!	!	!	!LO:MO:mod=da-	!	!	!LO:MO:mod=-ni.	!	!	!	!	!LO:PB:g=original	!LO:MO:mod=Nie	!	!	!	!	!	!	!	!	!	!	!	!	!	!	!	!	!	!
1FF/	10	.	1FF/	.	2A\	Da-	.	2c\	-ni	.	2r	.	.	2a\	nie	.	1ryy	1r	.	1r	.	1r	.	1ryy	1ryy	1r	.	1r	.	1r	.	1r	.
!	!	!	!	!	!	!LO:MO:mod=-ruj	!	!	!	!	!	!	!	!	!	!	!	!	!	!	!	!	!	!	!	!	!	!	!	!	!	!	!
.	.	.	.	.	(4G\	-ruy	.	4r	.	.	2f\	niech	.	2f/	za-	.	.	.	.	.	.	.	.	.	.	.	.	.	.	.	.	.	.
!	!	!	!	!	!	!	!	!	!LO:MO:mod=Coś-	!	!	!	!	!	!	!	!	!	!	!	!	!	!	!	!	!	!	!	!	!	!	!	!
.	.	.	.	.	4A\)	.	.	4c\	coś-	.	.	.	.	.	.	.	.	.	.	.	.	.	.	.	.	.	.	.	.	.	.	.	.
=34	=34	=34	=34	=34	=34	=34	=34	=34	=34	=34	=34	=34	=34	=34	=34	=34	=34	=34	=34	=34	=34	=34	=34	=34	=34	=34	=34	=34	=34	=34	=34	=34	=34
2BB-/	.	.	2BB-/	.	2.B-\	nam	.	2d\	-my	.	2f\	ich	.	(4d/	-pom-	.	1ryy	1r	.	1r	.	1r	.	1ryy	1ryy	1r	.	1r	.	1r	.	1r	.
.	.	.	.	.	.	.	.	.	.	.	.	.	.	4e/)	.	.	.	.	.	.	.	.	.	.	.	.	.	.	.	.	.	.	.
!	!	!	!	!	!	!	!	!	!	!	!	!LO:MO:mod=grzech	!	!	!LO:MO:mod=-nisz	!	!	!	!	!	!	!	!	!	!	!	!	!	!	!	!	!	!
2FF/	.	.	2FF/	.	.	.	.	2c\	się	.	2f\	grzech,	.	2f/	-nieſz	.	.	.	.	.	.	.	.	.	.	.	.	.	.	.	.	.	.
.	.	.	.	.	4A\	za	.	.	.	.	.	.	.	.	.	.	.	.	.	.	.	.	.	.	.	.	.	.	.	.	.	.	.
=35	=35	=35	=35	=35	=35	=35	=35	=35	=35	=35	=35	=35	=35	=35	=35	=35	=35	=35	=35	=35	=35	=35	=35	=35	=35	=35	=35	=35	=35	=35	=35	=35	=35
!	!	!	!	!	!LO:PB:g=original	!	!	!	!	!	!	!	!	!	!	!	!	!	!	!	!	!	!	!	!	!	!	!	!	!	!	!	!
1C/	7 5	.	1C/	.	(2G\	grze-	.	2B-\	tu	.	2g\	co	.	(2b-\	wiel-	.	1ryy	1r	.	1r	.	1r	.	1ryy	1ryy	1r	.	1r	.	1r	.	1r	.
.	6 4	.	.	.	4F\)	.	.	4c\	zgro-	.	4a\	po-	.	4a\)	.	.	.	.	.	.	.	.	.	.	.	.	.	.	.	.	.	.	.
.	5 3	.	.	.	4G\	-chy	.	4c\	-ma-	.	4e\	-peł-	.	4g\	-ki	.	.	.	.	.	.	.	.	.	.	.	.	.	.	.	.	.	.
=36	=36	=36	=36	=36	=36	=36	=36	=36	=36	=36	=36	=36	=36	=36	=36	=36	=36	=36	=36	=36	=36	=36	=36	=36	=36	=36	=36	=36	=36	=36	=36	=36	=36
!LO:PB:g=original	!	!	!	!	!	!	!	!	!	!	!	!	!	!	!	!	!	!	!	!	!	!	!	!	!	!	!	!	!	!	!	!	!
1FF/	.	.	1FF/	.	2A\	ka-	.	2.c\	-dzi-	.	2.f\	-ni-	.	2f/	Bo-	.	1ryy	1r	.	1r	.	1r	.	1ryy	1ryy	1r	.	1r	.	1r	.	1r	.
.	.	.	.	.	4F\	-rę	.	.	.	.	.	.	.	2a\	-że	.	.	.	.	.	.	.	.	.	.	.	.	.	.	.	.	.	.
.	.	.	.	.	4r	.	.	4B-\	-li	.	4c\	-li	.	.	.	.	.	.	.	.	.	.	.	.	.	.	.	.	.	.	.	.	.
=37	=37	=37	=37	=37	=37	=37	=37	=37	=37	=37	=37	=37	=37	=37	=37	=37	=37	=37	=37	=37	=37	=37	=37	=37	=37	=37	=37	=37	=37	=37	=37	=37	=37
!	!	!	!	!	!	!	!	!LO:PB:g=original	!	!	!	!	!	!	!	!	!	!	!	!	!	!	!	!	!	!	!	!	!	!	!	!	!
4FF/	.	.	4FF/	.	4F\	pro-	.	2A/	co	.	1c\	ta	.	2cc\	i	.	1ryy	1r	.	1r	.	1r	.	1ryy	1ryy	1r	.	1r	.	1r	.	1r	.
!	!	!	!	!	!	!LO:MO:mod=-si-	!	!	!	!	!	!	!	!	!	!	!	!	!	!	!	!	!	!	!	!	!	!	!	!	!	!	!
4F\	.	.	4F\	.	(4F\	-sie-	.	.	.	.	.	.	.	.	.	.	.	.	.	.	.	.	.	.	.	.	.	.	.	.	.	.	.
4G\	4 3	.	4G\	.	4G\)	.	.	(4G/	na	.	.	.	.	(4b-\	o	.	.	.	.	.	.	.	.	.	.	.	.	.	.	.	.	.	.
4A\	6	.	4A\	.	4A\	-my	.	4F/)	.	.	.	.	.	4a\)	.	.	.	.	.	.	.	.	.	.	.	.	.	.	.	.	.	.	.
=38	=38	=38	=38	=38	=38	=38	=38	=38	=38	=38	=38	=38	=38	=38	=38	=38	=38	=38	=38	=38	=38	=38	=38	=38	=38	=38	=38	=38	=38	=38	=38	=38	=38
!	!	!	!	!	!	!LO:MO:mod=Cię	!	!	!LO:MO:mod=świe-	!	!	!LO:MO:mod=świę-	!	!	!	!	!	!	!	!	!	!	!	!	!	!	!	!	!	!	!	!	!
2B-\	2	.	2B-\	.	(2B-\	cię	.	2E/	Świe-	.	2c\	swię-	.	(2g\	tych	.	1ryy	1r	.	1r	.	1r	.	1ryy	1ryy	1r	.	1r	.	1r	.	1r	.
2A\	6	.	2A\	.	2A\)	.	.	2F/	-cie	.	4c\	-ta	.	2f\)	.	.	.	.	.	.	.	.	.	.	.	.	.	.	.	.	.	.	.
.	.	.	.	.	.	.	.	.	.	.	4c\	o-	.	.	.	.	.	.	.	.	.	.	.	.	.	.	.	.	.	.	.	.	.
=39	=39	=39	=39	=39	=39	=39	=39	=39	=39	=39	=39	=39	=39	=39	=39	=39	=39	=39	=39	=39	=39	=39	=39	=39	=39	=39	=39	=39	=39	=39	=39	=39	=39
!	!	!	!	!	!	!LO:MO:mod=w_Twej	!	!	!	!	!	!	!	!LO:PB:g=original	!	!	!	!	!	!	!	!	!	!	!	!	!	!	!	!	!	!	!
2G\	6 4	.	2G\	.	2G\	w_twey	.	(2E/	lu-	.	2c\	-fia-	.	2g\	co	.	1ryy	1r	.	1r	.	1r	.	1ryy	1ryy	1r	.	1r	.	1r	.	1r	.
!	!	!	!	!	!	!LO:MO:mod=świą-	!	!	!	!	!	!	!	!	!	!	!	!	!	!	!	!	!	!	!	!	!	!	!	!	!	!	!
2GG/	7_ 2	.	2GG/	.	(4A\	swią-	.	4D/)	.	.	2g\	-ra	.	2f\	zmie-	.	.	.	.	.	.	.	.	.	.	.	.	.	.	.	.	.	.
.	x n3	.	.	.	4Bn\)	.	.	4D/	-dzi	.	.	.	.	.	.	.	.	.	.	.	.	.	.	.	.	.	.	.	.	.	.	.	.
=40	=40	=40	=40	=40	=40	=40	=40	=40	=40	=40	=40	=40	=40	=40	=40	=40	=40	=40	=40	=40	=40	=40	=40	=40	=40	=40	=40	=40	=40	=40	=40	=40	=40
!	!	!	!	!	!	!	!	!	!	!	!LO:PB:g=original	!	!	!	!	!	!	!	!	!	!	!	!	!	!	!	!	!	!	!	!	!	!
1C/	.	.	1C/	.	1c\	-ty-	.	2E/	ży-	.	2g\	zmy-	.	(2e/	-ra-	.	1ryy	1r	.	1r	.	1r	.	1ryy	1ryy	1r	.	1r	.	1r	.	1r	.
!	!	!	!	!	!	!	!	!	!LO:MO:mod=-je	!	!	!LO:MO:mod=-je.	!	!	!	!	!	!	!	!	!	!	!	!	!	!	!	!	!	!	!	!	!
.	.	.	.	.	.	.	.	2C/	-ie	.	(4f\	-ie	.	4d/)	.	.	.	.	.	.	.	.	.	.	.	.	.	.	.	.	.	.	.
.	.	.	.	.	.	.	.	.	.	.	4g\)	.	.	4e/	-li	.	.	.	.	.	.	.	.	.	.	.	.	.	.	.	.	.	.
=41	=41	=41	=41	=41	=41	=41	=41	=41	=41	=41	=41	=41	=41	=41	=41	=41	=41	=41	=41	=41	=41	=41	=41	=41	=41	=41	=41	=41	=41	=41	=41	=41	=41
!	!	!	!LO:MO:mod=!LO&colon;TX&colon;a&colon;i&colon;t=contrabasso	!	!	!	!	!	!	!	!	!	!	!	!	!	!	!	!	!	!	!	!	!	!	!	!	!	!	!	!	!	!
!	!	!	!LO:TX:a:t=Baſso	!	!LO:PB:g=original	!LO:MO:mod=-ni.	!	!	!	!	!	!LO:MO:mod=Nie	!	!	!LO:MO:mod=Oj-	!	!	!	!	!	!	!	!	!	!	!	!	!	!	!	!	!	!
2F\	.	.	2F\	.	2c\	-ni	.	2r	.	.	2a\	nie	.	2f/	Oy-	.	1ryy	1r	.	1r	.	1r	.	1ryy	1ryy	1r	.	1r	.	1r	.	1r	.
2E\	2	.	2E\	.	4r	.	.	2F/	niech	.	2f\	za-	.	4g/	-ciec	.	.	.	.	.	.	.	.	.	.	.	.	.	.	.	.	.	.
.	.	.	.	.	4c\	Coś-	.	.	.	.	.	.	.	4a\	za-	.	.	.	.	.	.	.	.	.	.	.	.	.	.	.	.	.	.
=42	=42	=42	=42	=42	=42	=42	=42	=42	=42	=42	=42	=42	=42	=42	=42	=42	=42	=42	=42	=42	=42	=42	=42	=42	=42	=42	=42	=42	=42	=42	=42	=42	=42
!	!	!	!LO:PB:g=original	!	!	!	!	!	!	!	!	!	!	!	!	!	!	!	!	!	!	!	!	!	!	!	!	!	!	!	!	!	!
2D\	6	.	2D\	.	2d\	-my	.	2F/	ich	.	(4d\	-pom-	.	(2b-\	-pom-	.	1ryy	1r	.	1r	.	1r	.	1ryy	1ryy	1r	.	1r	.	1r	.	1r	.
.	.	.	.	.	.	.	.	.	.	.	4e\)	.	.	.	.	.	.	.	.	.	.	.	.	.	.	.	.	.	.	.	.	.	.
!	!	!	!	!	!	!	!	!	!	!	!	!LO:MO:mod=-nisz	!	!	!	!	!	!	!	!	!	!	!	!	!	!	!	!	!	!	!	!	!
2C\	6 4	.	2C\	.	2c\	się	.	2F/	grzech	.	2f\	-nieſz	.	2a\)	.	.	.	.	.	.	.	.	.	.	.	.	.	.	.	.	.	.	.
=43	=43	=43	=43	=43	=43	=43	=43	=43	=43	=43	=43	=43	=43	=43	=43	=43	=43	=43	=43	=43	=43	=43	=43	=43	=43	=43	=43	=43	=43	=43	=43	=43	=43
!	!	!	!	!	!	!	!	!LO:PB:g=original	!	!	!	!	!	!	!	!	!	!	!	!	!	!	!	!	!	!	!	!	!	!	!	!	!
2BB-/	6 5	.	2BB-/	.	2B-\	tu	.	2G/	co	.	(2b-\	wiel-	.	2g\	-nieć	.	1ryy	1r	.	1r	.	1r	.	1ryy	1ryy	1r	.	1r	.	1r	.	1r	.
2C/	n	.	2C/	.	4c\	zgro-	.	4A/	po-	.	4a\)	.	.	(4f\	nie	.	.	.	.	.	.	.	.	.	.	.	.	.	.	.	.	.	.
.	.	.	.	.	4c\	-ma-	.	4E/	-peł-	.	4g\	-ki	.	4g\)	.	.	.	.	.	.	.	.	.	.	.	.	.	.	.	.	.	.	.
=44	=44	=44	=44	=44	=44	=44	=44	=44	=44	=44	=44	=44	=44	=44	=44	=44	=44	=44	=44	=44	=44	=44	=44	=44	=44	=44	=44	=44	=44	=44	=44	=44	=44
!	!	!	!	!	!	!	!	!	!LO:MO:mod=-ni-	!	!	!	!	!	!	!	!	!	!	!	!	!	!	!	!	!	!	!	!	!	!	!	!
2FF/	.	.	2FF/	.	2.c\	-dzi-	.	2.F/	-nili	.	2f\	Bo-	.	2a\	mo-	.	1ryy	1r	.	1r	.	1r	.	1ryy	1ryy	1r	.	1r	.	1r	.	1r	.
2F\	.	.	2F\	.	.	.	.	.	.	.	2a\	-że	.	4f/	-że	.	.	.	.	.	.	.	.	.	.	.	.	.	.	.	.	.	.
!	!	!	!	!	!	!	!	!	!LO:MO:null:mod=-li	!	!	!	!	!	!	!	!	!	!	!	!	!	!	!	!	!	!	!	!	!	!	!	!
.	.	.	.	.	4B-\	-li	.	4C/	.	.	.	.	.	4f/	o	.	.	.	.	.	.	.	.	.	.	.	.	.	.	.	.	.	.
=45	=45	=45	=45	=45	=45	=45	=45	=45	=45	=45	=45	=45	=45	=45	=45	=45	=45	=45	=45	=45	=45	=45	=45	=45	=45	=45	=45	=45	=45	=45	=45	=45	=45
!	!	!	!	!	!	!	!	!	!	!	!	!	!	!LO:PB:g=original	!	!	!	!	!	!	!	!	!	!	!	!	!	!	!	!	!	!	!
4r	6_	.	2A\	.	2A\	co	.	1c\	ta	.	2cc\	i	.	2f/	dzie-	.	1ryy	1r	.	1r	.	1r	.	1ryy	1ryy	1r	.	1r	.	1r	.	1r	.
4A\	.	.	.	.	.	.	.	.	.	.	.	.	.	.	.	.	.	.	.	.	.	.	.	.	.	.	.	.	.	.	.	.	.
4G\	6 3	.	4G\	.	(4G\	na	.	.	.	.	(4b-\	o	.	4g/	.	.	.	.	.	.	.	.	.	.	.	.	.	.	.	.	.	.	.
4F\	8 3	.	4F\	.	4F\)	.	.	.	.	.	4a\)	.	.	4a/	.	.	.	.	.	.	.	.	.	.	.	.	.	.	.	.	.	.	.
=46	=46	=46	=46	=46	=46	=46	=46	=46	=46	=46	=46	=46	=46	=46	=46	=46	=46	=46	=46	=46	=46	=46	=46	=46	=46	=46	=46	=46	=46	=46	=46	=46	=46
!	!	!	!	!	!	!LO:MO:mod=świe-	!	!	!LO:MO:mod=świę-	!	!	!	!	!	!	!	!	!	!	!	!	!	!	!	!	!	!	!	!	!	!	!	!
2E\	6 5	.	2E\	.	2E\	swie-	.	2c\	swię-	.	(2g\	tych	.	(2b-\	-ciach	.	1ryy	1r	.	1r	.	1r	.	1ryy	1ryy	1r	.	1r	.	1r	.	1r	.
2F\	.	.	2F\	.	2F\	-cie	.	4c\	-ta	.	2f\)	.	.	4a\)	.	.	.	.	.	.	.	.	.	.	.	.	.	.	.	.	.	.	.
.	.	.	.	.	.	.	.	4c\	o-	.	.	.	.	4a\	co	.	.	.	.	.	.	.	.	.	.	.	.	.	.	.	.	.	.
=47	=47	=47	=47	=47	=47	=47	=47	=47	=47	=47	=47	=47	=47	=47	=47	=47	=47	=47	=47	=47	=47	=47	=47	=47	=47	=47	=47	=47	=47	=47	=47	=47	=47
!	!	!	!	!	!LO:PB:g=original	!	!	!	!	!	!LO:PB:g=original	!	!	!	!	!	!	!	!	!	!	!	!	!	!	!	!	!	!	!	!	!	!
2E\	6	.	2E\	.	(2E\	lu-	.	2c\	-fia-	.	2g\	co	.	2g\	go	.	1ryy	1r	.	1r	.	1r	.	1ryy	1ryy	1r	.	1r	.	1r	.	1r	.
2D\	5 3_	.	2D\	.	4D\)	-dzi	.	2G/	-ra	.	2f\	zmie-	.	(4a\	ko-	.	.	.	.	.	.	.	.	.	.	.	.	.	.	.	.	.	.
.	6	.	.	.	4D\	.	.	.	.	.	.	.	.	4bn\)	.	.	.	.	.	.	.	.	.	.	.	.	.	.	.	.	.	.	.
.	n	.	.	.	.	.	.	.	.	.	.	.	.	.	.	.	.	.	.	.	.	.	.	.	.	.	.	.	.	.	.	.	.
=48	=48	=48	=48	=48	=48	=48	=48	=48	=48	=48	=48	=48	=48	=48	=48	=48	=48	=48	=48	=48	=48	=48	=48	=48	=48	=48	=48	=48	=48	=48	=48	=48	=48
2C/	8_ n	.	2C/	.	2E\	ży-	.	2G/	zmy-	.	(2e\	-ra-	.	1cc\	-cha-	.	1ryy	1r	.	1r	.	1r	.	1ryy	1ryy	1r	.	1r	.	1r	.	1r	.
!	!	!	!	!	!	!LO:MO:mod=-je	!	!	!LO:MO:mod=-je.	!	!	!	!	!	!	!	!	!	!	!	!	!	!	!	!	!	!	!	!	!	!	!	!
2c\	_ 4 2	.	2c\	.	2C/	-ie	.	(4F/	-ie	.	4d\)	.	.	.	.	.	.	.	.	.	.	.	.	.	.	.	.	.	.	.	.	.	.
.	x 5 3	.	.	.	.	.	.	4G/)	.	.	4e\	-li	.	.	.	.	.	.	.	.	.	.	.	.	.	.	.	.	.	.	.	.	.
!LO:PB:g=original	!	!	!	!	!	!	!	!LO:PB:g=original	!	!	!	!	!	!	!	!	!	!	!	!	!	!	!	!	!	!	!	!	!	!	!	!	!
=49	=49	=49	=49	=49	=49	=49	=49	=49	=49	=49	=49	=49	=49	=49	=49	=49	=49	=49	=49	=49	=49	=49	=49	=49	=49	=49	=49	=49	=49	=49	=49	=49	=49
!	!	!	!	!	!	!	!	!	!	!	!	!	!	!	!	!	!	!	!	!	!	!	!	!	!	!	!	!	!	!LO:MO:mod=*null:null	!	!	!
*	*	*	*	*	*	*	*	*	*	*	*	*	*	*	*	*	*	*	*	*	*	*	*	*	*	*	*	*	*	*2\right	*	*	*
!	!	!	!	!	!	!	!	!	!LO:MO:mod=Nie	!	!	!LO:MO:mod=Oj-	!	!	!LO:MO:mod=-li.	!	!	!	!	!	!	!	!	!	!	!	!	!	!	!	!LO:DY:rj:t=po:mod=%s	!	!LO:DY:t=po:mod=%s
2r	5 3	.	2r	.	2r	.	.	2A/	nie	.	2f\	Oy-	.	2cc\	-li	.	1ryy	1r	.	1r	.	1r	.	1ryy	1ryy	1r	.	1r	.	2a\	p	1cc\	p
2F\	_ _	.	2F\	.	2F\	niech	.	2F/	za-	.	4g\	-ciec	.	2r	.	.	.	.	.	.	.	.	.	.	.	.	.	.	.	4g\	.	.	.
.	x x	.	.	.	.	.	.	.	.	.	4a\	za-	.	.	.	.	.	.	.	.	.	.	.	.	.	.	.	.	.	4a\	.	.	.
=50	=50	=50	=50	=50	=50	=50	=50	=50	=50	=50	=50	=50	=50	=50	=50	=50	=50	=50	=50	=50	=50	=50	=50	=50	=50	=50	=50	=50	=50	=50	=50	=50	=50
!	!	!	!	!	!	!	!	!	!	!	!	!	!	!	!	!	!	!	!	!	!	!	!	!	!	!	!	!	!	!	!	!LO:MO:mod=*null:null	!
*	*	*	*	*	*	*	*	*	*	*	*	*	*	*	*	*	*	*	*	*	*	*	*	*	*	*	*	*	*	*	*	*2\right	*
!	!	!	!	!	!	!	!	!	!	!	!	!	!	!	!LO:MO:mod=Przyj-	!	!	!	!	!	!	!	!	!	!	!	!	!	!	!	!	!LO:SIC:s=(2dd	!
2BB-/	.	.	2BB-/	.	2F\	ich	.	(4D/	-pom-	.	(2b-\	-pom-	.	(2dd\	przyi-	.	1ryy	1r	.	1r	.	1r	.	1ryy	1ryy	1r	.	1r	.	(2b-\	.	2dd\	.
.	.	.	.	.	.	.	.	4E/)	.	.	.	.	.	.	.	.	.	.	.	.	.	.	.	.	.	.	.	.	.	.	.	.	.
!	!	!	!	!	!	!	!	!	!LO:MO:mod=-nisz	!	!	!	!	!	!	!	!	!	!	!	!	!	!	!	!	!	!	!	!	!	!	!LO:SIC:s=2cc)	!
2F\	.	.	2F\	.	2F\	grzech	.	2F/	-nieſz	.	2a\)	.	.	4cc\)	.	.	.	.	.	.	.	.	.	.	.	.	.	.	.	2a\)	.	2cc\	.
!	!	!	!	!	!	!	!	!	!	!	!	!	!	!	!LO:MO:mod=-mij	!	!	!	!	!	!	!	!	!	!	!	!	!	!	!	!	!	!
.	.	.	.	.	.	.	.	.	.	.	.	.	.	4cc\	-myi	.	.	.	.	.	.	.	.	.	.	.	.	.	.	.	.	.	.
=51	=51	=51	=51	=51	=51	=51	=51	=51	=51	=51	=51	=51	=51	=51	=51	=51	=51	=51	=51	=51	=51	=51	=51	=51	=51	=51	=51	=51	=51	=51	=51	=51	=51
!	!	!	!	!	!	!	!	!	!	!	!	!LO:MO:mod=-nieć	!	!LO:PB:g=original	!	!	!	!	!	!	!	!	!	!	!	!	!	!	!	!	!	!	!
2G\	-	.	2G\	.	2G\	co	.	(2B-/	wiel-	.	2g\	-niec	.	2b-\	Bo-	.	1ryy	1r	.	1r	.	1r	.	1ryy	1ryy	1r	.	1r	.	2g/	.	2b-\	.
2C/	n	.	2C\	.	4A\	po-	.	4A/)	.	.	(4f\	nie	.	2cc\	-że	.	.	.	.	.	.	.	.	.	.	.	.	.	.	4f/	.	4a\	.
.	.	.	.	.	4E\	-peł-	.	4G/	-ki	.	4g\)	.	.	.	.	.	.	.	.	.	.	.	.	.	.	.	.	.	.	4g/	.	4b-\	.
=52	=52	=52	=52	=52	=52	=52	=52	=52	=52	=52	=52	=52	=52	=52	=52	=52	=52	=52	=52	=52	=52	=52	=52	=52	=52	=52	=52	=52	=52	=52	=52	=52	=52
!	!	!	!LO:PB:g=original	!	!	!	!	!	!	!	!	!	!	!	!	!	!	!	!	!	!	!	!	!	!	!	!	!	!	!	!	!	!
2F\	.	.	2F\	.	2F\	-ni-	.	2F/	Bo-	.	2a\	mo-	.	2.cc\	tę	.	1ryy	1r	.	1r	.	1r	.	1ryy	1ryy	1r	.	1r	.	1f/	.	2a\	.
2A\	.	.	2A\	.	2C/	-li	.	2A\	-że	.	4f\	-że	.	.	.	.	.	.	.	.	.	.	.	.	.	.	.	.	.	.	.	2cc\	.
.	.	.	.	.	.	.	.	.	.	.	4f\	o	.	4b-\	o-	.	.	.	.	.	.	.	.	.	.	.	.	.	.	.	.	.	.
=53	=53	=53	=53	=53	=53	=53	=53	=53	=53	=53	=53	=53	=53	=53	=53	=53	=53	=53	=53	=53	=53	=53	=53	=53	=53	=53	=53	=53	=53	=53	=53	=53	=53
!	!	!	!	!	!LO:PB:g=original	!	!	!	!	!	!	!LO:MO:mod=dzie-	!	!	!	!	!	!	!	!	!	!	!	!	!	!	!	!	!	!	!	!	!
2c\	6 4	.	2c\	.	1C/	ta	.	2c\	i	.	2f\	Dzie-	.	(2a\	-fia-	.	1ryy	1r	.	1r	.	1r	.	1ryy	1ryy	1r	.	1r	.	2r	.	2r	.
4B-\	2	.	4B-\	.	.	.	.	(4B-\	o	.	4g\	.	.	4g\)	.	.	.	.	.	.	.	.	.	.	.	.	.	.	.	2a\	.	2ff\	.
4A\	6	.	4A\	.	.	.	.	4A\)	.	.	4a\	.	.	4f/	-rę	.	.	.	.	.	.	.	.	.	.	.	.	.	.	.	.	.	.
=54	=54	=54	=54	=54	=54	=54	=54	=54	=54	=54	=54	=54	=54	=54	=54	=54	=54	=54	=54	=54	=54	=54	=54	=54	=54	=54	=54	=54	=54	=54	=54	=54	=54
!	!	!	!	!	!	!LO:MO:mod=świę-	!	!	!	!	!LO:PB:g=original	!	!	!	!	!	!	!	!	!	!	!	!	!	!	!	!	!	!	!	!	!	!
2G\	6 3	.	2G\	.	2C/	swię-	.	(2G/	tych	.	(2b-\	-ciach	.	4e/	któ-	.	1ryy	1r	.	1r	.	1r	.	1ryy	1ryy	1r	.	1r	.	2b-\	.	2ee\	.
.	.	.	.	.	.	.	.	.	.	.	.	.	.	4e/	-rą	.	.	.	.	.	.	.	.	.	.	.	.	.	.	.	.	.	.
2F\	8 3	.	2F\	.	4C/	-ta	.	2F/)	.	.	4a\)	.	.	2f/	ci	.	.	.	.	.	.	.	.	.	.	.	.	.	.	2a\	.	2ff\	.
.	.	.	.	.	4C/	o-	.	.	.	.	4a\	co	.	.	.	.	.	.	.	.	.	.	.	.	.	.	.	.	.	.	.	.	.
=55	=55	=55	=55	=55	=55	=55	=55	=55	=55	=55	=55	=55	=55	=55	=55	=55	=55	=55	=55	=55	=55	=55	=55	=55	=55	=55	=55	=55	=55	=55	=55	=55	=55
!	!	!	!	!	!	!	!	!LO:PB:g=original	!	!	!	!	!	!	!LO:MO:mod=twój	!	!	!	!	!	!	!	!	!	!	!	!	!	!	!	!	!LO:PB:g=original	!
2E\	6	.	2E\	.	2C/	-fia-	.	2G/	co	.	2g\	go	.	2e/	twóy	.	1ryy	1r	.	1r	.	1r	.	1ryy	1ryy	1r	.	1r	.	[1g/	.	2gg\	.
2D\	5 3_	.	2D\	.	2G\	-ra	.	2F/	zmie-	.	(4a\	ko-	.	4d/	kap-	.	.	.	.	.	.	.	.	.	.	.	.	.	.	.	.	2ff\	.
.	6	.	.	.	.	.	.	.	.	.	4bn\)	.	.	4d/	-łan	.	.	.	.	.	.	.	.	.	.	.	.	.	.	.	.	.	.
.	n	.	.	.	.	.	.	.	.	.	.	.	.	.	.	.	.	.	.	.	.	.	.	.	.	.	.	.	.	.	.	.	.
=56	=56	=56	=56	=56	=56	=56	=56	=56	=56	=56	=56	=56	=56	=56	=56	=56	=56	=56	=56	=56	=56	=56	=56	=56	=56	=56	=56	=56	=56	=56	=56	=56	=56
!	!	!	!	!	!	!	!	!	!	!	!	!	!	!LO:PB:g=original	!	!	!	!	!	!	!	!	!	!	!	!	!	!	!	!	!	!	!
2C\	8_ 3	.	2C\	.	2G\	zmy-	.	2E/	-ra-	.	1cc\	-cha-	.	2e/	czy-	.	1ryy	1r	.	1r	.	1r	.	1ryy	1ryy	1r	.	1r	.	2g\]	.	2een\	.
!	!	!	!	!	!	!LO:MO:mod=-je.	!	!	!LO:MO:null:mod=-li	!	!	!	!	!	!	!	!	!	!	!	!	!	!	!	!	!	!	!	!	!	!	!	!
4D\	_ 3	.	4D\	.	(4F\	-ie	.	(4D/	.	.	.	.	.	2c/	-ni	.	.	.	.	.	.	.	.	.	.	.	.	.	.	2r	.	2r	.
!	!	!	!	!	!	!	!	!	!LO:MO:mod=.	!	!	!	!	!	!	!	!	!	!	!	!	!	!	!	!	!	!LO:DY:t=po:mod= 	!	!	!	!	!	!
4E\	_ 3	.	4E\	.	4G\)	.	.	4E/)	-li	.	.	.	.	.	.	.	.	.	.	.	.	.	.	.	.	.	p	.	.	.	.	.	.
=57	=57	=57	=57	=57	=57	=57	=57	=57	=57	=57	=57	=57	=57	=57	=57	=57	=57	=57	=57	=57	=57	=57	=57	=57	=57	=57	=57	=57	=57	=57	=57	=57	=57
!	!	!	!	!	!	!LO:MO:mod=Nie	!	!	!LO:MO:mod=Oj-	!	!	!	!	!	!	!	!	!	!	!	!	!	!	!	!	!	!LO:DY:t= :mod=%s	!	!LO:DY:t=po:mod=%s	!LO:PB:g=original	!	!	!
2F\	8_ 3	.	2F\	.	2A\	nie	.	2F/	Oy-	.	2cc\	-li	.	2r	.	.	1ryy	1r	.	1r	.	1r	.	1ryy	1ryy	[1F/	p	[1f/	p	2a\	.	[1ff\	.
4G\	_ 3	.	4G\	.	2F\	za-	.	4G/	-ciec	.	2r	.	.	4f/	da-	.	.	.	.	.	.	.	.	.	.	.	.	.	.	2cc\	.	.	.
!	!	!	!	!	!	!	!	!	!	!	!	!	!	!	!LO:MO:mod=-ruj	!	!	!	!	!	!	!	!	!	!	!	!	!	!	!	!	!	!
4A\	_ 3	.	4A\	.	.	.	.	4A/	za-	.	.	.	.	4f/	-ruy	.	.	.	.	.	.	.	.	.	.	.	.	.	.	.	.	.	.
=58	=58	=58	=58	=58	=58	=58	=58	=58	=58	=58	=58	=58	=58	=58	=58	=58	=58	=58	=58	=58	=58	=58	=58	=58	=58	=58	=58	=58	=58	=58	=58	=58	=58
!	!	!	!	!	!	!	!	!	!	!	!	!LO:MO:mod=Oj-	!	!	!	!	!	!	!	!	!	!	!	!	!	!	!	!	!	!	!	!	!
2B-\	x	.	2B-\	.	(4D\	-pom-	.	(2B-\	-pom-	.	2dd\	Oy-	.	2.f/	nam	.	1ryy	1r	.	1r	.	1r	.	1ryy	1ryy	1F/]	.	1f/]	.	2dd\	.	2ff\]	.
.	.	.	.	.	4E\)	.	.	.	.	.	.	.	.	.	.	.	.	.	.	.	.	.	.	.	.	.	.	.	.	.	.	.	.
!	!	!	!	!	!	!LO:MO:mod=-nisz	!	!	!	!	!	!	!	!	!	!	!	!	!	!	!	!	!	!	!	!	!	!	!	!	!	!	!
2A\	6	.	2A\	.	2F\	-nieſz	.	2A\)	.	.	4cc\	-ciec	.	.	.	.	.	.	.	.	.	.	.	.	.	.	.	.	.	2cc\	.	2ff\	.
.	.	.	.	.	.	.	.	.	.	.	4cc\	za-	.	4f/	za	.	.	.	.	.	.	.	.	.	.	.	.	.	.	.	.	.	.
=59	=59	=59	=59	=59	=59	=59	=59	=59	=59	=59	=59	=59	=59	=59	=59	=59	=59	=59	=59	=59	=59	=59	=59	=59	=59	=59	=59	=59	=59	=59	=59	=59	=59
!	!	!	!	!	!LO:PB:g=original	!	!	!	!	!	!	!	!	!	!	!	!	!	!	!	!	!	!	!	!	!	!	!	!	!	!	!	!
2G\	-	.	2G\	.	(2B-\	wiel-	.	2G/	-nieć	.	2b-\	-pom-	.	(2g\	grze-	.	1ryy	1r	.	1r	.	1r	.	1ryy	1ryy	1c/	.	1c/	.	1b-\	.	2gg\	.
!	!	!	!	!	!	!	!	!	!	!	!	!LO:MO:mod=-nieć	!	!	!	!	!	!	!	!	!	!	!	!	!	!	!	!	!	!	!	!	!
2C/	n	.	2C/	.	4A\)	.	.	(4F/	nie	.	4cc\	-niec	.	4a\)	.	.	.	.	.	.	.	.	.	.	.	.	.	.	.	.	.	4ff\	.
.	.	.	.	.	4G\	-ki	.	4G/)	.	.	4cc\	.	.	4e/	-chy	.	.	.	.	.	.	.	.	.	.	.	.	.	.	.	.	4ee\	.
=60	=60	=60	=60	=60	=60	=60	=60	=60	=60	=60	=60	=60	=60	=60	=60	=60	=60	=60	=60	=60	=60	=60	=60	=60	=60	=60	=60	=60	=60	=60	=60	=60	=60
!LO:PB:g=original	!	!	!	!	!	!	!	!	!	!	!	!	!	!	!	!	!	!	!	!	!	!	!	!	!	!	!	!LO:MO:mod=*null:null	!	!	!	!	!
*	*	*	*	*	*	*	*	*	*	*	*	*	*	*	*	*	*	*	*	*	*	*	*	*	*	*	*	*2\right	*	*	*	*	*
1F\	.	.	1F\	.	2F\	Bo-	.	2A/	mo-	.	2cc\	nie	.	2.f/	ka-	.	1ryy	1r	.	1r	.	1r	.	1ryy	1ryy	2A/	.	2f\	.	1a/	.	1ff\	.
!	!	!	!	!	!	!	!	!LO:PB:g=original	!	!	!	!	!	!	!	!	!	!	!	!	!	!	!	!	!	!	!	!	!	!	!	!	!
.	.	.	.	.	2A\	-że	.	4F/	-że	.	4cc\	może	.	.	.	.	.	.	.	.	.	.	.	.	.	2r	.	2r	.	.	.	.	.
.	.	.	.	.	.	.	.	4F/	o	.	4cc\	o	.	4c/	-rę	.	.	.	.	.	.	.	.	.	.	.	.	.	.	.	.	.	.
=61	=61	=61	=61	=61	=61	=61	=61	=61	=61	=61	=61	=61	=61	=61	=61	=61	=61	=61	=61	=61	=61	=61	=61	=61	=61	=61	=61	=61	=61	=61	=61	=61	=61
!	!	!	!LO:PB:g=original	!	!	!	!	!	!LO:MO:mod=dzie-	!	!LO:PB:g=original	!LO:MO:mod=dzie-	!	!	!	!	!	!	!	!	!	!	!	!	!	!	!	!	!	!	!	!	!
2FF/	.	.	2FF/	.	2c\	i	.	2F/	Dzie-	.	(2a\	Dzie-	.	4cc\	pro-	.	1ryy	1r	.	1r	.	1r	.	1ryy	1ryy	2A/	.	2f\	.	2r	.	2ff\	.
!	!	!	!	!	!	!	!	!	!	!	!	!	!	!	!LO:MO:mod=-si-	!	!	!	!	!	!	!	!	!	!	!	!	!	!	!	!	!	!
.	.	.	.	.	.	.	.	.	.	.	.	.	.	2cc\	-sie-	.	.	.	.	.	.	.	.	.	.	.	.	.	.	.	.	.	.
2F\	.	.	2F\	.	(4B-\	o	.	4G/	.	.	4g\)	.	.	.	.	.	.	.	.	.	.	.	.	.	.	4c/	.	4g\	.	2cc\	.	4gg\	.
.	.	.	.	.	4A\)	.	.	4A/	.	.	4f\	-ciach	.	4cc\	-my	.	.	.	.	.	.	.	.	.	.	4f\	.	4a\	.	.	.	4aa\	.
=62	=62	=62	=62	=62	=62	=62	=62	=62	=62	=62	=62	=62	=62	=62	=62	=62	=62	=62	=62	=62	=62	=62	=62	=62	=62	=62	=62	=62	=62	=62	=62	=62	=62
!	!	!	!	!	!	!	!	!	!	!	!	!	!	!LO:PB:g=original	!	!	!	!	!	!	!	!	!	!	!	!	!	!	!	!	!	!	!
2E\	6 5	.	2E\	.	(2G\	tych	.	2B-\	.	.	2e\	co	.	1cc\	Cię	.	1ryy	1r	.	1r	.	1r	.	1ryy	1ryy	2c/	.	2g\	.	[1cc\	.	2bb-\	.
!	!	!	!	!	!	!	!	!	!	!	!	!	!	!	!	!	!	!	!	!	!	!	!	!	!	!LO:MO:mod=*null:null	!	!	!	!	!	!	!
*	*	*	*	*	*	*	*	*	*	*	*	*	*	*	*	*	*	*	*	*	*	*	*	*	*	*2\right	*	*	*	*	*	*	*
2F\	.	.	2F\	.	2F\)	.	.	4A\	-ciach	.	4f\	go	.	.	.	.	.	.	.	.	.	.	.	.	.	2f\	.	2a\	.	.	.	2aa\	.
.	.	.	.	.	.	.	.	4A\	co	.	4f\	ko-	.	.	.	.	.	.	.	.	.	.	.	.	.	.	.	.	.	.	.	.	.
=63	=63	=63	=63	=63	=63	=63	=63	=63	=63	=63	=63	=63	=63	=63	=63	=63	=63	=63	=63	=63	=63	=63	=63	=63	=63	=63	=63	=63	=63	=63	=63	=63	=63
!	!	!	!	!	!	!	!	!	!	!	!LO:SIC:s=(2g	!	!	!	!LO:MO:mod=w_Twej	!	!	!	!	!	!	!	!	!	!	!	!	!	!	!	!	!	!
2G\	6 4	.	2G\	.	2E\	co	.	2G/	go	.	2g\	-cha-	.	2cc\	w_twey	.	1ryy	1r	.	1r	.	1r	.	1ryy	1ryy	1g/	.	[1g/	.	2cc\]	.	2gg\	.
!	!	!	!	!	!	!	!	!	!	!	!LO:SIC:s=2f)	!	!	!	!LO:MO:mod=świą-	!	!	!	!	!	!	!	!	!	!	!	!	!	!	!	!	!	!
2GG/	7_ 2	.	2GG/	.	2D\	zmie-	.	(4A/	ko-	.	2f\	.	.	2g\	swią-	.	.	.	.	.	.	.	.	.	.	.	.	.	.	2bX\	.	2ff\	.
.	_ 3	.	.	.	.	.	.	4Bn/)	.	.	.	.	.	.	.	.	.	.	.	.	.	.	.	.	.	.	.	.	.	.	.	.	.
=64	=64	=64	=64	=64	=64	=64	=64	=64	=64	=64	=64	=64	=64	=64	=64	=64	=64	=64	=64	=64	=64	=64	=64	=64	=64	=64	=64	=64	=64	=64	=64	=64	=64
!	!	!	!	!	!	!	!	!	!	!	!	!LO:MO:mod=-li.	!	!	!	!	!	!	!	!	!	!	!	!	!	!	!	!	!	!	!	!	!
2C/	n	.	2C/	.	2.C/	-ra-	.	2c\	-cha-	.	2e\	-li	.	2g\	-ty-	.	1ryy	1r	.	1r	.	1r	.	1ryy	1ryyyy	1c/	.	1g/]	.	2cc\	.	1ee\	.
2r	.	.	2r	.	.	.	.	4c\	-li	.	2r	.	.	(4f\	-ni	.	.	.	.	.	.	.	.	.	.	.	.	.	.	2b-X\	.	.	.
.	.	.	.	.	4C/	-li	.	4r	.	.	.	.	.	4g\)	.	.	.	.	.	.	.	.	.	.	.	.	.	.	.	.	.	.	.
=65	=65	=65	=65	=65	=65	=65	=65	=65	=65	=65	=65	=65	=65	=65	=65	=65	=65	=65	=65	=65	=65	=65	=65	=65	=65	=65	=65	=65	=65	=65	=65	=65	=65
!	!	!	!	!	!LO:PB:g=oroginal	!	!	!LO:PB:g=original	!	!	!	!	!	!	!	!	!	!LO:MO:mod=*null:null	!LO:DY:t=po:mod=%s	!LO:MO:mod=*null:null	!LO:DY:t=po:mod=%s	!LO:MO:mod=*null:null	!LO:DY:t=po:mod=%s	!	!	!	!	!	!	!	!	!	!
*	*	*	*	*	*	*	*	*	*	*	*	*	*	*	*	*	*	*2\right	*	*2\right	*	*2\right	*	*	*	*	*	*	*	*	*	*	*
!	!	!	!	!	!	!LO:MO:mod=Oj-	!	!	!	!	!	!LO:MO:mod=Przyj-	!	!	!LO:MO:mod=da-	!	!	!	!	!	!	!	!	!	!	!	!	!	!	!	!	!	!
2FF/	.	.	2FF/	.	2F\	Oy-	.	2c\	niech	.	2.f\	Przyi-	.	(2a\	Da-	.	1ryy	2F\	p	2c\	p	2f\	p	1ryy	1ryy	[1F/	.	[1f/	.	2a\	.	2ff\	.
2F\	.	.	2F\	.	4F\	-ciec	.	2c\	ich	.	.	.	.	4g\)	.	.	.	2r	.	2r	.	2r	.	.	.	.	.	.	.	4b-\	.	4gg\	.
!	!	!	!	!	!	!	!	!	!	!	!	!LO:MO:mod=-mij	!	!	!LO:MO:mod=-ruj	!	!	!	!	!	!	!	!	!	!	!	!	!	!	!	!	!	!
.	.	.	.	.	4F\	za-	.	.	.	.	4f\	-myi	.	4a\	-ruy	.	.	.	.	.	.	.	.	.	.	.	.	.	.	4cc\	.	4aa\	.
=66	=66	=66	=66	=66	=66	=66	=66	=66	=66	=66	=66	=66	=66	=66	=66	=66	=66	=66	=66	=66	=66	=66	=66	=66	=66	=66	=66	=66	=66	=66	=66	=66	=66
2BB-/	.	.	2BB-/	.	1BB-/	-pom-	.	1d\	grzech	.	2f\	Bo-	.	2.b-\	nam	.	1ryy	2BB-/	.	2d\	.	2f\	.	1ryy	1ryy	1F/]	.	1f/]	.	1dd\	.	2.bb-\	.
2BB-/	.	.	2BB-/	.	.	.	.	.	.	.	2f\	-że	.	.	.	.	.	2r	.	2r	.	2r	.	.	.	.	.	.	.	.	.	.	.
.	.	.	.	.	.	.	.	.	.	.	.	.	.	4a\	za	.	.	.	.	.	.	.	.	.	.	.	.	.	.	.	.	4aa\	.
=67	=67	=67	=67	=67	=67	=67	=67	=67	=67	=67	=67	=67	=67	=67	=67	=67	=67	=67	=67	=67	=67	=67	=67	=67	=67	=67	=67	=67	=67	=67	=67	=67	=67
!	!	!	!	!	!	!	!	!	!	!	!LO:PB:g=original	!	!	!	!	!	!	!	!	!	!	!	!	!	!	!	!	!	!	!	!	!	!
2C/	4	.	2C/	.	2C/	-nieć	.	2B-\	co	.	2f\	tę	.	(2g\	grze-	.	1ryy	2C/	.	2B-\	.	2e\	.	1ryy	1ryy	1c/	.	1g/	.	1ee\	.	2gg\	.
!	!	!	!	!	!	!	!	!	!	!	!	!LO:MO:mod=o-	!	!	!	!	!	!	!	!	!	!	!	!	!	!	!	!	!	!	!	!	!
2C/	3	.	2C/	.	2C/	nie	.	4B-\	po-	.	2f\	O-	.	4f\)	.	.	.	2r	.	2r	.	2r	.	.	.	.	.	.	.	.	.	4ff\	.
.	.	.	.	.	.	.	.	4B-\	-peł-	.	.	.	.	4g\	-chy	.	.	.	.	.	.	.	.	.	.	.	.	.	.	.	.	4gg\	.
=68	=68	=68	=68	=68	=68	=68	=68	=68	=68	=68	=68	=68	=68	=68	=68	=68	=68	=68	=68	=68	=68	=68	=68	=68	=68	=68	=68	=68	=68	=68	=68	=68	=68
!	!	!	!	!	!	!	!	!	!	!	!	!	!	!	!	!	!	!	!	!	!	!	!	!	!	!	!	!	!	!	!LO:DY:t= :mod=%s	!	!
!	!	!	!	!	!	!	!	!	!	!	!	!	!	!	!	!	!	!	!	!	!	!	!	!	!	!	!	!	!	!	!LO:MO:mod=!LO&colon;DY&colon;ed=brack	!	!
!LO:SIC:s=1C#^	!	!	!	!	!	!	!	!	!LO:MO:mod=-ni-	!	!	!	!	!LO:PB:g=original	!	!	!	!LO:TX:t=P:problem=diminuendolikeaccent	!	!LO:TX:t=P:problem=diminuendolikeaccent	!	!LO:TX:t=P:problem=diminuendolikeaccent	!	!	!	!LO:TX:t=P:problem=diminuendolikeaccent	!	!LO:TX:t=P:problem=diminuendolikeaccent	!	!LO:TX:t=P:problem=diminuendolikeaccent	!null	!LO:SIC:s=1aa^	!
1C#X/	6	.	1C#X/^	rfz	2C#X/	mo-	.	2c\	-nili	.	2.e\	-fia-	.	2a\	ka-	.	1ryy	(1C#X/^	.	[1A\^<	.	(1e\^<	.	1ryy	1ryy	[1A/^<	.	1a/^<	.	1cc#X\^<	rfz	1aa\	rfz
!	!	!	!	!	!	!	!	!	!LO:MO:null:mod=-li	!	!	!	!	!	!	!	!	!	!	!	!	!	!	!	!	!	!	!	!	!	!	!	!
.	.	.	.	.	4C#/	-że	.	2c\	.	.	.	.	.	2a\	-rę	.	.	.	.	.	.	.	.	.	.	.	.	.	.	.	.	.	.
.	.	.	.	.	4C#/	o	.	.	.	.	4e\	-rę	.	.	.	.	.	.	.	.	.	.	.	.	.	.	.	.	.	.	.	.	.
=69	=69	=69	=69	=69	=69	=69	=69	=69	=69	=69	=69	=69	=69	=69	=69	=69	=69	=69	=69	=69	=69	=69	=69	=69	=69	=69	=69	=69	=69	=69	=69	=69	=69
!	!	!	!	!	!	!	!	!	!	!	!	!	!	!	!	!	!	!	!	!	!	!	!	!	!	!	!	!	!	!	!	!LO:PB:g=original	!
2D\	n	.	2D\	.	1D\	dzie-	.	1A\	ta	.	2e\	któ-	.	4f/	pro-	.	1ryy	2D\)	.	2A\]	.	2d\)	.	1ryy	1ryy	2A/]	.	2f\	.	2r	.	2ff\	.
!	!	!	!	!	!	!	!	!	!	!	!	!	!	!	!LO:MO:mod=-si-	!	!	!	!	!	!	!	!	!	!	!	!	!	!	!	!	!	!
.	.	.	.	.	.	.	.	.	.	.	.	.	.	(4f/	-sie-	.	.	.	.	.	.	.	.	.	.	.	.	.	.	.	.	.	.
2D\	.	.	2D\	.	.	.	.	.	.	.	2d\	-rą	.	4e/)	.	.	.	2r	.	2r	.	2r	.	.	.	2r	.	2r	.	2a\	.	4ee\	.
.	.	.	.	.	.	.	.	.	.	.	.	.	.	4f/	-my	.	.	.	.	.	.	.	.	.	.	.	.	.	.	.	.	4ff\	.
=70	=70	=70	=70	=70	=70	=70	=70	=70	=70	=70	=70	=70	=70	=70	=70	=70	=70	=70	=70	=70	=70	=70	=70	=70	=70	=70	=70	=70	=70	=70	=70	=70	=70
!	!	!	!LO:PB:g=original	!	!	!	!	!	!	!	!	!	!	!	!	!	!	!	!	!	!	!	!	!	!	!LO:TX:a:t=1.:mod=	!	!LO:TX:a:t=1:mod=	!	!	!	!	!
2GG/	-	.	2GG/	.	2GG/	-ciach	.	2B-\	świę-	.	2.d\	ci	.	(2.g/	Cię	.	1ryy	2GG/	.	2B-\	.	2d\	.	1ryy	1ryy	1r	.	1r	.	[1b-\	.	2.gg\	.
4AA/	_	.	4AA/	.	(4AA/	co	.	4B-\	-ta	.	.	.	.	.	.	.	.	2r	.	2r	.	2r	.	.	.	.	.	.	.	.	.	.	.
!	!	!	!	!	!	!	!	!	!	!	!	!LO:MO:mod=twój	!	!	!	!	!	!	!	!	!	!	!	!	!	!	!	!	!	!	!	!	!
4BB-/	x	.	4BB-/	.	4BB-/)	.	.	4B-\	o-	.	4d\	twóy	.	4f/)	.	.	.	.	.	.	.	.	.	.	.	.	.	.	.	.	.	4ff\	.
=71	=71	=71	=71	=71	=71	=71	=71	=71	=71	=71	=71	=71	=71	=71	=71	=71	=71	=71	=71	=71	=71	=71	=71	=71	=71	=71	=71	=71	=71	=71	=71	=71	=71
!LO:PB:g=original	!	!	!	!	!LO:PB:g=original	!	!	!LO:PB:g=original	!	!	!	!	!	!	!LO:MO:mod=w_Twej	!	!	!	!	!	!	!	!	!	!	!	!	!	!	!	!	!	!
2C/	7	.	2C/	.	2C/	go	.	2.B-\	-fia-	.	2c\	kap-	.	2e/	w_twey	.	1ryy	2C/	.	2B-\	.	2e\	.	1ryy	1ryy	2r	.	2r	.	2b-\]	.	2ee\	.
!	!	!LO:HP:ed=brack	!	!	!	!	!LO:HP:ed=brack	!	!	!LO:HP:ed=brack	!	!	!LO:HP:ed=brack	!	!	!LO:HP:ed=brack	!	!	!	!	!	!	!	!	!	!	!	!	!	!	!	!	!
!	!	!LO:MO:null:mod=>	!	!LO:MO:null:mod=>	!	!	!LO:MO:null:mod=>	!	!	!LO:MO:null:mod=>	!	!	!LO:MO:null:mod=>	!	!	!LO:MO:null:mod=>	!	!	!	!	!	!	!	!	!	!	!	!	!	!	!	!	!
2C/	.	.	2C/	.	2C/	ko-	.	.	.	.	2c\	-łan	.	(4d/	świą-	.	.	2r	.	2r	.	2r	.	.	.	2C/	>	2c/	>	2b-\	>	4dd\	>
.	.	.	.	.	.	.	.	4B-\	-ra	.	.	.	.	4e/)	.	.	.	.	.	.	.	.	.	.	.	.	.	.	.	.	.	4ee\	.
=72	=72	=72	=72	=72	=72	=72	=72	=72	=72	=72	=72	=72	=72	=72	=72	=72	=72	=72	=72	=72	=72	=72	=72	=72	=72	=72	=72	=72	=72	=72	=72	=72	=72
!	!	!	!	!LO:MO:mod=.	!	!	!	!	!	!	!LO:SIC:s=1c	!	!	!	!	!	!	!	!LO:MO:mod=>	!	!LO:MO:mod=>	!	!	!	!	!	!	!LO:SIC:s=[1c	!	!	!	!	!
[1FF/	.	.	[1FF/	>	1FF/	-cha-	.	1A\	zmy-	.	1c\;	czy-	.	1f/	-ty-	.	1ryy	[1FF/	>]	[1A\	>]	[1f\	>	1ryy	1ryy	[1F/	.	1c/	.	[1a/	.	[1ff\	.
=73	=73	=73	=73	=73	=73	=73	=73	=73	=73	=73	=73	=73	=73	=73	=73	=73	=73	=73	=73	=73	=73	=73	=73	=73	=73	=73	=73	=73	=73	=73	=73	=73	=73
!	!	!LO:MO:null:mod=]	!	!	!	!LO:MO:mod=-li.	!LO:MO:null:mod=]	!	!LO:MO:mod=-je.	!LO:MO:null:mod=]	!	!LO:MO:mod=-ni.	!LO:MO:null:mod=]	!	!LO:MO:mod=-ni.	!LO:MO:null:mod=]	!	!	!LO:MO:null:mod=]	!	!LO:MO:null:mod=]	!	!LO:MO:null:mod=]	!	!	!	!LO:MO:null:mod=]	!LO:SIC:s=2c]	!	!	!	!	!
2FF/]	.	.	2FF/]	]	2FF/	-li	.	2A\	-ie	.	2c\	-ni	.	2f/	-ni	.	1ryy	2FF/]	.	2A\]	.	2f\]	.	1ryy	1ryy	2F/]	.	2c/	]	2a\]	]	2ff\]	]
!	!	!	!	!	!	!	!	!	!	!	!	!	!	!	!	!	!	!	!	!	!	!	!LO:MO:mod=.	!	!	!	!LO:MO:mod=.	!	!	!	!	!	!
2r	.	.	2r	.	2r	.	.	2r	.	.	2r	.	.	2r	.	.	.	2r	.	2r	.	2r	]	.	.	2r	]	2r	.	2r	.	2r	.
==	==	==	==	==	==	==	==	==	==	==	==	==	==	==	==	==	==	==	==	==	==	==	==	==	==	==	==	==	==	==	==	==	==
*-	*-	*-	*-	*-	*-	*-	*-	*-	*-	*-	*-	*-	*-	*-	*-	*-	*-	*-	*-	*-	*-	*-	*-	*-	*-	*-	*-	*-	*-	*-	*-	*-	*-
!!!system-decoration: [(g1)][(g2)]<s10>[(g3)]<s15,s16>
!!!RDF**kern: > = above
!!!RDF**kern: < = below
!!!filter-modern: shed -k -e "s/[<>]//g" | shed -X dynam -e "s/:a/:A/LX" | shed -e "s/TX(.*):t=P:/tx$1:t=P:/LG" | shed -e "s/:rj/:RJ/L" | sic -sq | modori -m | autostem -r | tie -s | humtr -p | shed -e "s/yy//"
!!!ENC: Leszek Kubiak
!!!END: 2020-05-07
!!!ENC-modern: Andrzej Kubiczek
!!!END-modern: 2022-07-16
!!!YEC: Copyright 2022 Narodowy Instytut Fryderyka Chopina (https://polishscores.org)
!!!YEM: License CC-BY-4.0 (https://creativecommons.org/licenses/by/4.0)
